;FLAVOR:Marlin
;TIME:1777
;Filament used: 1.70438m
;Layer height: 0.15
;Generated with Cura_SteamEngine 4.0.0
M140 S60
M105
M190 S60
M104 S200
M105
M109 S200
M82 ;absolute extrusion mode
G21 ;metric values
G90 ;absolute positioning
M82 ;set extruder to absolute mode
M107 ;start with the fan off
G28 X0 Y0 ;move X/Y to min endstops
G28 Z0 ;move Z to min endstops
G1 Z15.0 F9000 ;move the platform down 15mm
G92 E0 ;zero the extruded length
G1 F200 E3 ;extrude 3mm of feed stock
G92 E0 ;zero the extruded length again
G1 F9000
;Put printing message on LCD screen
M117 Printing...
G92 E0
G1 F1500 E-6.5
;LAYER_COUNT:33
;LAYER:0
M107
G0 F3600 X47.46 Y90.263 Z0.3
;TYPE:SKIRT
G1 F1500 E0
G1 F1800 X48.185 Y89.951 E0.03938
G1 X48.917 Y89.72 E0.07767
G1 X61.902 Y86.309 E0.74748
G1 X61.987 Y86.287 E0.75186
G1 X71.574 Y83.883 E1.24496
G1 X71.739 Y83.844 E1.25342
G1 X79.277 Y82.127 E1.63912
G1 X79.481 Y82.083 E1.64954
G1 X86.269 Y80.727 E1.99488
G1 X86.508 Y80.683 E2.00701
G1 X92.773 Y79.633 E2.32393
G1 X93.033 Y79.594 E2.33704
G1 X98.933 Y78.809 E2.63399
G1 X99.216 Y78.777 E2.6482
G1 X104.908 Y78.23 E2.93348
G1 X105.208 Y78.207 E2.94849
G1 X111.271 Y77.86 E3.25147
G1 X111.582 Y77.848 E3.267
G1 X117.635 Y77.743 E3.56903
G1 X117.952 Y77.744 E3.58485
G1 X123.92 Y77.883 E3.88267
G1 X124.274 Y77.899 E3.90035
G1 X130.821 Y78.35 E4.22776
G1 X131.605 Y78.445 E4.26716
G1 X132.443 Y78.637 E4.31005
G1 X134.596 Y79.257 E4.42183
G1 X135.388 Y79.532 E4.46365
G1 X137.15 Y80.252 E4.55862
G1 X137.947 Y80.631 E4.60265
G1 X139.477 Y81.469 E4.68968
G1 X140.332 Y82.012 E4.74021
G1 X141.721 Y83.027 E4.82604
G1 X142.575 Y83.751 E4.88189
G1 X143.617 Y84.771 E4.95464
G1 X144.153 Y85.351 E4.99404
G1 X144.417 Y85.686 E5.01532
G1 X145.345 Y86.932 E5.09283
G1 X145.784 Y87.588 E5.13221
G1 X145.999 Y87.973 E5.15421
G1 X146.701 Y89.314 E5.22973
G1 X147.151 Y90.349 E5.28603
G1 X147.67 Y91.828 E5.36423
G1 X147.942 Y92.799 E5.41454
G1 X148.216 Y94.096 E5.48067
G1 X148.355 Y95.032 E5.52788
G1 X148.496 Y96.654 E5.60911
G1 X148.522 Y97.549 E5.65378
G1 X148.394 Y102.108 E5.88132
G1 X148.313 Y103.032 E5.9276
G1 X148.105 Y104.436 E5.99841
G1 X147.877 Y105.478 E6.05162
G1 X147.519 Y106.705 E6.11539
G1 X147.26 Y107.451 E6.15479
G1 X147.061 Y107.9 E6.17929
G1 X146.549 Y108.965 E6.23824
G1 X146.171 Y109.658 E6.27763
G1 X145.9 Y110.071 E6.30227
G1 X145.403 Y110.778 E6.34539
G1 X144.917 Y111.4 E6.38477
G1 X144.628 Y111.716 E6.40613
G1 X144.092 Y112.27 E6.44459
G1 X143.515 Y112.809 E6.48398
G1 X142.782 Y113.356 E6.52961
G1 X141.694 Y114.074 E6.59465
G1 X141.014 Y114.475 E6.63403
G1 X140.297 Y114.805 E6.67341
G1 X139.55 Y115.061 E6.7128
G1 X138.78 Y115.241 E6.75226
G1 X137.997 Y115.341 E6.79164
G1 X137.398 Y115.364 E6.82154
G1 X132.899 Y115.364 E7.046
G1 X132.11 Y115.324 E7.08541
G1 X131.33 Y115.205 E7.12478
G1 X130.565 Y115.007 E7.1642
G1 X129.825 Y114.733 E7.20357
G1 X129.116 Y114.385 E7.24297
G1 X128.445 Y113.967 E7.28241
G1 X127.821 Y113.484 E7.32178
G1 X127.248 Y112.941 E7.36117
G1 X126.733 Y112.342 E7.40058
G1 X126.282 Y111.694 E7.43996
G1 X125.898 Y111.003 E7.4794
G1 X125.586 Y110.278 E7.51878
G1 X125.349 Y109.525 E7.55817
G1 X125.19 Y108.751 E7.59759
G1 X125.109 Y107.966 E7.63696
G1 X125.099 Y107.564 E7.65702
G1 X125.099 Y102.764 E7.89649
G1 X117.699 Y102.764 E8.26568
G1 X117.699 Y107.564 E8.50515
G1 X117.659 Y108.353 E8.54457
G1 X117.54 Y109.133 E8.58393
G1 X117.342 Y109.898 E8.62336
G1 X117.068 Y110.638 E8.66273
G1 X116.72 Y111.347 E8.70213
G1 X116.302 Y112.018 E8.74157
G1 X115.819 Y112.642 E8.78094
G1 X115.276 Y113.215 E8.82032
G1 X114.677 Y113.73 E8.85973
G1 X114.029 Y114.181 E8.89912
G1 X113.338 Y114.565 E8.93856
G1 X112.613 Y114.877 E8.97794
G1 X111.86 Y115.114 E9.01732
G1 X111.086 Y115.273 E9.05674
G1 X110.301 Y115.354 E9.09611
G1 X109.899 Y115.364 E9.11618
G1 X105.398 Y115.364 E9.34073
G1 X104.609 Y115.324 E9.38015
G1 X103.634 Y115.162 E9.42946
G1 X98.192 Y113.899 E9.70817
G1 X92.899 Y112.905 E9.97686
G1 X87.661 Y112.151 E10.24088
G1 X82.379 Y111.621 E10.50572
G1 X77.131 Y111.323 E10.76797
G1 X71.863 Y111.25 E11.03081
G1 X66.557 Y111.404 E11.29564
G1 X61.239 Y111.787 E11.56165
G1 X55.879 Y112.401 E11.83081
G1 X52.059 Y112.976 E12.02353
G1 X51.274 Y113.054 E12.06289
G1 X50.484 Y113.052 E12.1023
G1 X49.698 Y112.97 E12.14173
G1 X48.925 Y112.809 E12.18112
G1 X48.172 Y112.571 E12.22052
G1 X47.447 Y112.258 E12.25992
G1 X46.758 Y111.873 E12.2993
G1 X46.111 Y111.42 E12.3387
G1 X45.513 Y110.905 E12.37807
G1 X44.97 Y110.331 E12.41749
G1 X44.488 Y109.706 E12.45687
G1 X44.072 Y109.035 E12.49626
G1 X43.725 Y108.325 E12.53569
G1 X43.452 Y107.584 E12.57508
G1 X43.256 Y106.819 E12.61448
G1 X43.138 Y106.038 E12.65389
G1 X43.099 Y105.263 E12.6926
G1 X43.099 Y97.264 E13.09167
G1 X43.139 Y96.475 E13.13109
G1 X43.258 Y95.695 E13.17045
G1 X43.456 Y94.93 E13.20988
G1 X43.73 Y94.19 E13.24924
G1 X44.078 Y93.481 E13.28865
G1 X44.496 Y92.81 E13.32809
G1 X44.979 Y92.186 E13.36746
G1 X45.522 Y91.613 E13.40684
G1 X46.121 Y91.098 E13.44625
G1 X46.769 Y90.647 E13.48564
G1 X47.46 Y90.263 E13.52508
G0 F3600 X47.835 Y90.528
G1 F1800 X48.55 Y90.247 E13.56341
G1 X49.019 Y90.107 E13.58783
G1 X62.004 Y86.696 E14.25763
G1 X62.084 Y86.675 E14.26175
G1 X71.671 Y84.271 E14.75486
G1 X71.828 Y84.234 E14.76291
G1 X79.366 Y82.517 E15.14861
G1 X79.559 Y82.475 E15.15847
G1 X86.347 Y81.119 E15.50381
G1 X86.574 Y81.078 E15.51532
G1 X92.839 Y80.028 E15.83224
G1 X93.086 Y79.991 E15.8447
G1 X98.986 Y79.206 E16.14165
G1 X99.254 Y79.175 E16.15511
G1 X104.946 Y78.628 E16.44039
G1 X105.231 Y78.606 E16.45465
G1 X111.294 Y78.259 E16.75763
G1 X111.589 Y78.248 E16.77236
G1 X117.642 Y78.143 E17.07439
G1 X117.942 Y78.144 E17.08936
G1 X123.91 Y78.283 E17.38718
G1 X124.247 Y78.298 E17.40401
G1 X130.794 Y78.749 E17.73142
G1 X131.557 Y78.842 E17.76977
G1 X132.333 Y79.021 E17.8095
G1 X134.486 Y79.641 E17.92128
G1 X135.237 Y79.902 E17.96094
G1 X136.999 Y80.622 E18.0559
G1 X137.755 Y80.982 E18.09768
G1 X139.285 Y81.82 E18.18471
G1 X140.096 Y82.335 E18.23264
G1 X141.485 Y83.35 E18.31847
G1 X142.295 Y84.037 E18.37146
G1 X143.337 Y85.057 E18.4442
G1 X144.096 Y85.925 E18.50173
G1 X145.024 Y87.171 E18.57924
G1 X145.451 Y87.811 E18.61762
G1 X145.645 Y88.159 E18.6375
G1 X146.347 Y89.5 E18.71302
G1 X146.774 Y90.482 E18.76644
G1 X147.293 Y91.961 E18.84464
G1 X147.55 Y92.881 E18.89229
G1 X147.824 Y94.178 E18.95843
G1 X147.956 Y95.067 E19.00327
G1 X148.097 Y96.689 E19.0845
G1 X148.122 Y97.538 E19.12687
G1 X147.994 Y102.097 E19.35441
G1 X147.917 Y102.973 E19.39828
G1 X147.709 Y104.377 E19.46909
G1 X147.493 Y105.366 E19.5196
G1 X147.135 Y106.593 E19.58336
G1 X146.881 Y107.319 E19.62174
G1 X146.7 Y107.726 E19.64396
G1 X146.188 Y108.791 E19.70291
G1 X145.819 Y109.466 E19.74129
G1 X145.573 Y109.841 E19.76367
G1 X145.076 Y110.548 E19.80678
G1 X144.601 Y111.153 E19.84516
G1 X144.34 Y111.437 E19.8644
G1 X143.804 Y111.991 E19.90286
G1 X143.241 Y112.516 E19.94127
G1 X142.562 Y113.022 E19.98351
G1 X141.474 Y113.74 E20.04855
G1 X140.811 Y114.13 E20.08692
G1 X140.111 Y114.449 E20.1253
G1 X139.382 Y114.693 E20.16366
G1 X138.631 Y114.861 E20.20205
G1 X137.867 Y114.949 E20.24042
G1 X137.398 Y114.964 E20.26383
G1 X132.899 Y114.964 E20.48828
G1 X132.131 Y114.924 E20.52665
G1 X131.371 Y114.805 E20.56503
G1 X130.628 Y114.607 E20.60339
G1 X129.909 Y114.333 E20.64178
G1 X129.223 Y113.986 E20.68013
G1 X128.576 Y113.57 E20.71851
G1 X127.976 Y113.089 E20.75687
G1 X127.429 Y112.548 E20.79526
G1 X126.941 Y111.953 E20.83365
G1 X126.518 Y111.311 E20.87201
G1 X126.163 Y110.628 E20.91041
G1 X125.882 Y109.913 E20.94874
G1 X125.676 Y109.171 E20.98716
G1 X125.548 Y108.413 E21.02551
G1 X125.499 Y107.564 E21.06793
G1 X125.499 Y102.364 E21.32736
G1 X117.299 Y102.364 E21.73646
G1 X117.299 Y107.564 E21.99589
G1 X117.259 Y108.332 E22.03426
G1 X117.14 Y109.092 E22.07264
G1 X116.942 Y109.835 E22.111
G1 X116.668 Y110.554 E22.14939
G1 X116.321 Y111.24 E22.18774
G1 X115.905 Y111.887 E22.22612
G1 X115.424 Y112.487 E22.26448
G1 X114.883 Y113.034 E22.30287
G1 X114.288 Y113.522 E22.34126
G1 X113.646 Y113.945 E22.37961
G1 X112.963 Y114.3 E22.41802
G1 X112.248 Y114.581 E22.45634
G1 X111.506 Y114.787 E22.49476
G1 X110.748 Y114.915 E22.53312
G1 X109.899 Y114.964 E22.57554
G1 X105.398 Y114.964 E22.8001
G1 X104.63 Y114.924 E22.83847
G1 X103.724 Y114.772 E22.8843
G1 X98.287 Y113.51 E23.16276
G1 X92.956 Y112.509 E23.43338
G1 X87.711 Y111.754 E23.69775
G1 X82.42 Y111.223 E23.96304
G1 X77.135 Y110.923 E24.22714
G1 X71.858 Y110.849 E24.49043
G1 X66.539 Y111.004 E24.75591
G1 X61.214 Y111.388 E25.02227
G1 X55.831 Y112.005 E25.29258
G1 X52 Y112.581 E25.48586
G1 X51.234 Y112.655 E25.52426
G1 X50.465 Y112.65 E25.56262
G1 X49.701 Y112.565 E25.60097
G1 X48.949 Y112.402 E25.63936
G1 X48.219 Y112.161 E25.67771
G1 X47.517 Y111.845 E25.71612
G1 X46.852 Y111.459 E25.75448
G1 X46.231 Y111.005 E25.79286
G1 X45.66 Y110.49 E25.83122
G1 X45.146 Y109.918 E25.86959
G1 X44.694 Y109.295 E25.90799
G1 X44.309 Y108.629 E25.94637
G1 X43.995 Y107.927 E25.98474
G1 X43.756 Y107.196 E26.02311
G1 X43.594 Y106.444 E26.06148
G1 X43.511 Y105.68 E26.09982
G1 X43.499 Y105.263 E26.12064
G1 X43.499 Y97.264 E26.51971
G1 X43.539 Y96.496 E26.55808
G1 X43.658 Y95.736 E26.59646
G1 X43.856 Y94.993 E26.63482
G1 X44.13 Y94.274 E26.67321
G1 X44.477 Y93.588 E26.71156
G1 X44.893 Y92.941 E26.74993
G1 X45.374 Y92.341 E26.7883
G1 X45.915 Y91.794 E26.82668
G1 X46.51 Y91.306 E26.86507
G1 X47.152 Y90.883 E26.90343
G1 X47.835 Y90.528 E26.94183
G0 F3600 X47.533 Y91.126
G1 F1800 X48.207 Y90.802 E26.97914
G1 X49.121 Y90.494 E27.02726
G1 X62.106 Y87.083 E27.69707
G1 X62.181 Y87.063 E27.70094
G1 X71.768 Y84.659 E28.19404
G1 X71.916 Y84.624 E28.20163
G1 X79.454 Y82.907 E28.58734
G1 X79.638 Y82.868 E28.59672
G1 X86.426 Y81.512 E28.94207
G1 X86.64 Y81.472 E28.95293
G1 X92.905 Y80.422 E29.26985
G1 X93.139 Y80.387 E29.28165
G1 X99.039 Y79.602 E29.5786
G1 X99.292 Y79.573 E29.5913
G1 X104.984 Y79.026 E29.87659
G1 X105.254 Y79.005 E29.8901
G1 X111.317 Y78.658 E30.19308
G1 X111.596 Y78.648 E30.20701
G1 X117.649 Y78.543 E30.50904
G1 X117.933 Y78.544 E30.52321
G1 X123.901 Y78.683 E30.82103
G1 X124.219 Y78.698 E30.83691
G1 X130.766 Y79.149 E31.16432
G1 X131.509 Y79.24 E31.20166
G1 X132.222 Y79.405 E31.23818
G1 X134.375 Y80.025 E31.34995
G1 X135.086 Y80.272 E31.38751
G1 X136.848 Y80.992 E31.48247
G1 X137.563 Y81.333 E31.52199
G1 X139.093 Y82.171 E31.60902
G1 X139.86 Y82.658 E31.65435
G1 X141.249 Y83.673 E31.74018
G1 X142.016 Y84.323 E31.79033
G1 X143.058 Y85.343 E31.86308
G1 X143.775 Y86.164 E31.91746
G1 X144.703 Y87.41 E31.99497
G1 X145.291 Y88.345 E32.05008
G1 X145.993 Y89.686 E32.12559
G1 X146.396 Y90.614 E32.17607
G1 X146.915 Y92.093 E32.25427
G1 X147.159 Y92.964 E32.29939
G1 X147.433 Y94.261 E32.36553
G1 X147.558 Y95.102 E32.40795
G1 X147.699 Y96.724 E32.48918
G1 X147.722 Y97.526 E32.5292
G1 X147.594 Y102.085 E32.75674
G1 X147.521 Y102.915 E32.79831
G1 X147.313 Y104.319 E32.86912
G1 X147.109 Y105.254 E32.91687
G1 X146.751 Y106.481 E32.98063
G1 X146.503 Y107.187 E33.01797
G1 X146.34 Y107.553 E33.03796
G1 X145.828 Y108.618 E33.09691
G1 X145.468 Y109.274 E33.13424
G1 X145.246 Y109.611 E33.15438
G1 X144.749 Y110.318 E33.19749
G1 X144.053 Y111.159 E33.25195
G1 X143.517 Y111.713 E33.29041
G1 X142.969 Y112.222 E33.32773
G1 X142.342 Y112.688 E33.3667
G1 X141.254 Y113.406 E33.43173
G1 X140.608 Y113.785 E33.4691
G1 X139.926 Y114.092 E33.50641
G1 X139.215 Y114.324 E33.54373
G1 X138.483 Y114.479 E33.58106
G1 X137.398 Y114.564 E33.63535
G1 X132.899 Y114.564 E33.85981
G1 X132.152 Y114.524 E33.89713
G1 X131.414 Y114.405 E33.93443
G1 X130.692 Y114.207 E33.97178
G1 X129.996 Y113.934 E34.00908
G1 X129.333 Y113.587 E34.04641
G1 X128.71 Y113.172 E34.08376
G1 X128.136 Y112.693 E34.12105
G1 X127.615 Y112.156 E34.15838
G1 X127.156 Y111.566 E34.19568
G1 X126.761 Y110.93 E34.23303
G1 X126.437 Y110.256 E34.27034
G1 X126.187 Y109.551 E34.30766
G1 X126.013 Y108.823 E34.345
G1 X125.918 Y108.081 E34.38232
G1 X125.899 Y107.564 E34.40813
G1 X125.899 Y101.964 E34.68751
G1 X116.899 Y101.964 E35.13653
G1 X116.899 Y107.564 E35.41591
G1 X116.859 Y108.311 E35.45323
G1 X116.74 Y109.049 E35.49053
G1 X116.542 Y109.771 E35.52788
G1 X116.269 Y110.467 E35.56518
G1 X115.922 Y111.13 E35.60251
G1 X115.507 Y111.753 E35.63986
G1 X115.028 Y112.327 E35.67716
G1 X114.491 Y112.848 E35.71448
G1 X113.901 Y113.307 E35.75178
G1 X113.265 Y113.702 E35.78913
G1 X112.591 Y114.026 E35.82644
G1 X111.886 Y114.276 E35.86376
G1 X111.158 Y114.45 E35.9011
G1 X110.416 Y114.545 E35.93842
G1 X109.899 Y114.564 E35.96423
G1 X105.398 Y114.564 E36.18879
G1 X104.651 Y114.524 E36.22611
G1 X103.815 Y114.383 E36.26841
G1 X98.359 Y113.116 E36.54785
G1 X93.04 Y112.118 E36.81785
G1 X87.738 Y111.355 E37.08509
G1 X82.459 Y110.825 E37.34978
G1 X77.14 Y110.523 E37.61558
G1 X71.851 Y110.449 E37.87947
G1 X66.522 Y110.605 E38.14545
G1 X61.162 Y110.99 E38.41355
G1 X55.782 Y111.607 E38.68372
G1 X51.94 Y112.185 E38.87756
G1 X51.196 Y112.257 E38.91485
G1 X50.448 Y112.248 E38.95217
G1 X49.705 Y112.16 E38.9895
G1 X48.976 Y111.994 E39.0268
G1 X48.268 Y111.75 E39.06416
G1 X47.591 Y111.432 E39.10147
G1 X46.952 Y111.044 E39.13877
G1 X46.357 Y110.59 E39.17611
G1 X45.815 Y110.075 E39.21341
G1 X45.33 Y109.505 E39.25075
G1 X44.91 Y108.886 E39.28807
G1 X44.557 Y108.226 E39.32541
G1 X44.277 Y107.533 E39.3627
G1 X44.073 Y106.813 E39.40003
G1 X43.946 Y106.076 E39.43734
G1 X43.899 Y105.263 E39.47797
G1 X43.899 Y97.264 E39.87705
G1 X43.939 Y96.517 E39.91437
G1 X44.058 Y95.779 E39.95166
G1 X44.256 Y95.057 E39.98901
G1 X44.529 Y94.361 E40.02631
G1 X44.876 Y93.698 E40.06364
G1 X45.291 Y93.075 E40.10099
G1 X45.77 Y92.501 E40.13829
G1 X46.307 Y91.98 E40.17562
G1 X46.897 Y91.521 E40.21291
G1 X47.533 Y91.126 E40.25026
G0 F3600 X47.912 Y91.379
G1 F1800 X48.577 Y91.086 E40.28652
G1 X49.222 Y90.881 E40.32028
G1 X62.207 Y87.47 E40.99009
G1 X62.279 Y87.451 E40.9938
G1 X71.866 Y85.047 E41.48691
G1 X72.005 Y85.014 E41.49403
G1 X79.543 Y83.297 E41.87974
G1 X79.716 Y83.26 E41.88856
G1 X86.504 Y81.904 E42.23391
G1 X86.706 Y81.867 E42.24416
G1 X92.971 Y80.817 E42.56108
G1 X93.192 Y80.784 E42.57223
G1 X99.092 Y79.999 E42.86917
G1 X99.331 Y79.971 E42.88118
G1 X105.023 Y79.424 E43.16646
G1 X105.277 Y79.405 E43.17917
G1 X111.34 Y79.058 E43.48215
G1 X111.603 Y79.048 E43.49528
G1 X117.656 Y78.943 E43.79731
G1 X117.924 Y78.944 E43.81068
G1 X123.892 Y79.083 E44.1085
G1 X124.192 Y79.097 E44.12349
G1 X130.739 Y79.548 E44.45089
G1 X131.459 Y79.637 E44.48709
G1 X132.111 Y79.79 E44.5205
G1 X134.264 Y80.41 E44.63228
G1 X134.935 Y80.642 E44.6677
G1 X136.697 Y81.362 E44.76266
G1 X137.37 Y81.683 E44.79986
G1 X138.9 Y82.521 E44.88689
G1 X139.624 Y82.981 E44.92969
G1 X141.013 Y83.996 E45.01552
G1 X141.736 Y84.609 E45.06281
G1 X142.778 Y85.629 E45.13555
G1 X143.454 Y86.403 E45.18682
G1 X144.382 Y87.649 E45.26433
G1 X144.936 Y88.53 E45.31625
G1 X145.638 Y89.871 E45.39177
G1 X146.019 Y90.747 E45.43943
G1 X146.538 Y92.226 E45.51763
G1 X146.767 Y93.047 E45.56015
G1 X147.041 Y94.344 E45.62628
G1 X147.159 Y95.136 E45.66623
G1 X147.3 Y96.758 E45.74746
G1 X147.322 Y97.515 E45.78524
G1 X147.194 Y102.074 E46.01278
G1 X147.126 Y102.856 E46.05194
G1 X146.918 Y104.26 E46.12275
G1 X146.725 Y105.142 E46.1678
G1 X146.367 Y106.369 E46.23157
G1 X145.979 Y107.38 E46.28559
G1 X145.467 Y108.445 E46.34455
G1 X144.918 Y109.381 E46.39868
G1 X144.421 Y110.088 E46.4418
G1 X143.765 Y110.881 E46.49314
G1 X143.229 Y111.435 E46.5316
G1 X142.696 Y111.929 E46.56786
G1 X142.121 Y112.355 E46.60356
G1 X141.033 Y113.073 E46.6686
G1 X140.406 Y113.439 E46.70482
G1 X139.742 Y113.734 E46.74107
G1 X139.05 Y113.954 E46.77729
G1 X138.338 Y114.097 E46.81352
G1 X137.398 Y114.164 E46.86054
G1 X132.899 Y114.164 E47.085
G1 X132.174 Y114.124 E47.12122
G1 X131.457 Y114.005 E47.15748
G1 X130.758 Y113.807 E47.19373
G1 X130.085 Y113.534 E47.22996
G1 X129.446 Y113.189 E47.26619
G1 X128.849 Y112.775 E47.30244
G1 X128.301 Y112.299 E47.33865
G1 X127.808 Y111.765 E47.37491
G1 X127.378 Y111.18 E47.41113
G1 X127.014 Y110.551 E47.44739
G1 X126.721 Y109.886 E47.48364
G1 X126.503 Y109.193 E47.51989
G1 X126.363 Y108.481 E47.55609
