;FLAVOR:Marlin
;TIME:1630
;Filament used: 0.961112m
;Layer height: 0.1
;Generated with Cura_SteamEngine 4.0.0
M140 S60
M105
M190 S60
M104 S200
M105
M109 S200
M82 ;absolute extrusion mode
G21 ;metric values
G90 ;absolute positioning
M82 ;set extruder to absolute mode
M107 ;start with the fan off
G28 X0 Y0 ;move X/Y to min endstops
G28 Z0 ;move Z to min endstops
G1 Z15.0 F9000 ;move the platform down 15mm
G92 E0 ;zero the extruded length
G1 F200 E3 ;extrude 3mm of feed stock
G92 E0 ;zero the extruded length again
G1 F9000
;Put printing message on LCD screen
M117 Printing...
G92 E0
G1 F1500 E-6.5
;LAYER_COUNT:39
;LAYER:0
M107
G0 F3600 X63.735 Y89.679 Z0.3
;TYPE:SKIRT
G1 F1500 E0
G1 F1800 X64.386 Y89.232 E0.0394
G1 X64.849 Y88.97 E0.06594
G1 X65.962 Y88.387 E0.12862
G1 X66.679 Y88.056 E0.16802
G1 X67.148 Y87.885 E0.19293
G1 X68.336 Y87.495 E0.25531
G1 X69.098 Y87.287 E0.29472
G1 X69.615 Y87.192 E0.32094
G1 X70.858 Y87.006 E0.38365
G1 X71.644 Y86.929 E0.42305
G1 X72.156 Y86.921 E0.44859
G1 X73.404 Y86.944 E0.51087
G1 X74.192 Y86.999 E0.55028
G1 X74.689 Y87.075 E0.57536
G1 X75.923 Y87.305 E0.63798
G1 X76.385 Y87.406 E0.66158
G1 X80.738 Y88.494 E0.88543
G1 X85.011 Y89.342 E1.10277
G1 X89.242 Y89.965 E1.31613
G1 X93.535 Y90.386 E1.53134
G1 X97.852 Y90.598 E1.74697
G1 X102.147 Y90.598 E1.96125
G1 X106.466 Y90.386 E2.17699
G1 X110.756 Y89.965 E2.39204
G1 X115.029 Y89.333 E2.60754
G1 X119.246 Y88.498 E2.82202
G1 X123.615 Y87.406 E3.04669
G1 X124.077 Y87.305 E3.07028
G1 X125.311 Y87.075 E3.13291
G1 X126.093 Y86.97 E3.17227
G1 X126.596 Y86.944 E3.1974
G1 X127.844 Y86.921 E3.25968
G1 X128.634 Y86.947 E3.29911
G1 X129.142 Y87.006 E3.32462
G1 X130.385 Y87.192 E3.38733
G1 X131.159 Y87.348 E3.42672
G1 X131.664 Y87.495 E3.45296
G1 X132.852 Y87.885 E3.51534
G1 X133.589 Y88.169 E3.55475
G1 X134.038 Y88.387 E3.57965
G1 X135.151 Y88.97 E3.64233
G1 X135.831 Y89.371 E3.68172
G1 X136.265 Y89.679 E3.70827
G1 X137.258 Y90.437 E3.77059
G1 X137.86 Y90.947 E3.80996
G1 X138.218 Y91.305 E3.83521
G1 X139.077 Y92.222 E3.8979
G1 X139.587 Y92.824 E3.93726
G1 X139.884 Y93.242 E3.96285
G1 X140.576 Y94.285 E4.02529
G1 X140.978 Y94.964 E4.06466
G1 X141.204 Y95.429 E4.09045
G1 X141.712 Y96.572 E4.15286
G1 X141.996 Y97.309 E4.19226
G1 X142.14 Y97.804 E4.21798
G1 X142.451 Y99.018 E4.2805
G1 X142.608 Y99.792 E4.3199
G1 X142.668 Y100.3 E4.34543
G1 X142.773 Y101.548 E4.40791
G1 X142.799 Y102.337 E4.44729
G1 X142.773 Y102.854 E4.47312
G1 X142.668 Y104.106 E4.5358
G1 X142.562 Y104.888 E4.57517
G1 X142.451 Y105.388 E4.60072
G1 X142.141 Y106.599 E4.66309
G1 X141.907 Y107.353 E4.70248
G1 X141.712 Y107.833 E4.72832
G1 X141.203 Y108.978 E4.79084
G1 X140.847 Y109.683 E4.83024
G1 X140.577 Y110.119 E4.85583
G1 X139.885 Y111.163 E4.91831
G1 X139.416 Y111.799 E4.95774
G1 X139.077 Y112.186 E4.98341
G1 X138.218 Y113.103 E5.04609
G1 X137.649 Y113.652 E5.08554
G1 X137.254 Y113.974 E5.11096
G1 X136.261 Y114.731 E5.17326
G1 X135.609 Y115.177 E5.21267
G1 X135.156 Y115.435 E5.23868
G1 X134.043 Y116.019 E5.30139
G1 X133.326 Y116.35 E5.34079
G1 X132.852 Y116.523 E5.36596
G1 X131.664 Y116.913 E5.42834
G1 X130.902 Y117.121 E5.46775
G1 X130.385 Y117.216 E5.49397
G1 X129.142 Y117.402 E5.55668
G1 X128.356 Y117.479 E5.59608
G1 X127.844 Y117.487 E5.62163
G1 X126.596 Y117.464 E5.6839
G1 X125.808 Y117.409 E5.72331
G1 X125.311 Y117.333 E5.74839
G1 X124.077 Y117.103 E5.81102
G1 X123.615 Y117.002 E5.83461
G1 X119.262 Y115.914 E6.05846
G1 X114.989 Y115.066 E6.2758
G1 X110.758 Y114.443 E6.48916
G1 X106.465 Y114.022 E6.70437
G1 X102.148 Y113.81 E6.92
G1 X97.853 Y113.81 E7.13428
G1 X93.534 Y114.022 E7.35002
G1 X89.244 Y114.443 E7.56508
G1 X84.971 Y115.075 E7.78058
G1 X80.754 Y115.91 E7.99505
G1 X76.385 Y117.002 E8.21972
G1 X75.923 Y117.103 E8.24332
G1 X74.689 Y117.333 E8.30594
G1 X73.907 Y117.438 E8.34531
G1 X73.404 Y117.464 E8.37043
G1 X72.156 Y117.487 E8.43271
G1 X71.366 Y117.461 E8.47214
G1 X70.858 Y117.402 E8.49766
G1 X69.615 Y117.216 E8.56036
G1 X68.841 Y117.06 E8.59975
G1 X68.336 Y116.913 E8.62599
G1 X67.148 Y116.523 E8.68837
G1 X66.411 Y116.239 E8.72778
G1 X65.957 Y116.019 E8.75295
G1 X64.844 Y115.435 E8.81566
G1 X64.164 Y115.033 E8.85507
G1 X63.739 Y114.731 E8.88108
G1 X62.746 Y113.974 E8.94337
G1 X62.143 Y113.464 E8.98277
G1 X61.782 Y113.103 E9.00824
G1 X60.923 Y112.186 E9.07093
G1 X60.413 Y111.584 E9.11029
G1 X60.115 Y111.163 E9.13603
G1 X59.423 Y110.119 E9.19851
G1 X59.02 Y109.44 E9.23791
G1 X58.797 Y108.978 E9.2635
G1 X58.288 Y107.833 E9.32601
G1 X58.004 Y107.097 E9.36537
G1 X57.859 Y106.599 E9.39125
G1 X57.549 Y105.388 E9.45362
G1 X57.392 Y104.614 E9.49302
G1 X57.332 Y104.108 E9.51844
G1 X57.227 Y102.86 E9.58092
G1 X57.201 Y102.071 E9.62031
G1 X57.227 Y101.554 E9.64613
G1 X57.332 Y100.302 E9.70881
G1 X57.438 Y99.52 E9.74818
G1 X57.549 Y99.02 E9.77374
G1 X57.859 Y97.809 E9.8361
G1 X58.093 Y97.055 E9.87549
G1 X58.287 Y96.577 E9.90123
G1 X58.796 Y95.431 E9.96379
G1 X59.152 Y94.726 E10.00319
G1 X59.424 Y94.285 E10.02904
G1 X60.116 Y93.242 E10.09148
G1 X60.586 Y92.607 E10.1309
G1 X60.923 Y92.222 E10.15643
G1 X61.782 Y91.305 E10.21911
G1 X62.351 Y90.756 E10.25856
G1 X62.742 Y90.437 E10.28373
G1 X63.735 Y89.679 E10.34606
G0 F3600 X63.978 Y89.997
G1 F1800 X64.613 Y89.563 E10.38443
G1 X65.034 Y89.324 E10.40858
G1 X66.147 Y88.741 E10.47127
G1 X66.846 Y88.42 E10.50964
G1 X67.273 Y88.265 E10.53231
G1 X68.461 Y87.875 E10.59469
G1 X69.203 Y87.674 E10.63304
G1 X69.674 Y87.587 E10.65694
G1 X70.917 Y87.401 E10.71964
G1 X71.682 Y87.327 E10.75799
G1 X72.148 Y87.321 E10.78124
G1 X73.396 Y87.344 E10.84351
G1 X74.164 Y87.398 E10.88192
G1 X74.616 Y87.468 E10.90474
G1 X75.85 Y87.698 E10.96736
G1 X76.288 Y87.794 E10.98973
G1 X80.665 Y88.888 E11.21482
G1 X84.934 Y89.736 E11.43196
G1 X89.187 Y90.362 E11.64643
G1 X93.517 Y90.786 E11.86349
G1 X97.833 Y90.998 E12.07908
G1 X102.166 Y90.998 E12.29525
G1 X106.484 Y90.786 E12.51094
G1 X110.814 Y90.362 E12.72799
G1 X115.079 Y89.73 E12.9431
G1 X119.342 Y88.886 E13.15991
G1 X123.712 Y87.794 E13.38463
G1 X124.15 Y87.698 E13.407
G1 X125.384 Y87.468 E13.46963
G1 X126.147 Y87.367 E13.50803
G1 X126.604 Y87.344 E13.53086
G1 X127.852 Y87.321 E13.59313
G1 X128.62 Y87.347 E13.63147
G1 X129.083 Y87.401 E13.65472
G1 X130.326 Y87.587 E13.71743
G1 X131.08 Y87.741 E13.75582
G1 X131.539 Y87.875 E13.77968
G1 X132.727 Y88.265 E13.84206
G1 X133.444 Y88.543 E13.88042
G1 X133.853 Y88.741 E13.90309
G1 X134.966 Y89.324 E13.96578
G1 X135.628 Y89.716 E14.00416
G1 X136.022 Y89.997 E14.02831
G1 X137.015 Y90.755 E14.09063
G1 X137.601 Y91.253 E14.129
G1 X137.926 Y91.578 E14.15193
G1 X138.785 Y92.495 E14.21461
G1 X139.281 Y93.083 E14.25299
G1 X139.55 Y93.463 E14.27622
G1 X140.242 Y94.506 E14.33867
G1 X140.634 Y95.168 E14.37705
G1 X140.838 Y95.592 E14.40052
G1 X141.346 Y96.735 E14.46293
G1 X141.622 Y97.453 E14.5013
G1 X141.753 Y97.904 E14.52473
G1 X142.064 Y99.118 E14.58726
G1 X142.215 Y99.872 E14.62562
G1 X142.269 Y100.334 E14.64883
G1 X142.374 Y101.582 E14.71131
G1 X142.399 Y102.35 E14.74965
G1 X142.374 Y102.82 E14.77313
G1 X142.269 Y104.072 E14.83581
G1 X142.165 Y104.835 E14.87423
G1 X142.064 Y105.289 E14.89743
G1 X141.754 Y106.5 E14.9598
G1 X141.525 Y107.234 E14.99816
G1 X141.347 Y107.671 E15.0217
G1 X140.838 Y108.816 E15.08421
G1 X140.489 Y109.502 E15.12261
G1 X140.244 Y109.898 E15.14584
G1 X139.552 Y110.942 E15.20833
G1 X139.094 Y111.561 E15.24675
G1 X138.785 Y111.913 E15.27012
G1 X137.926 Y112.83 E15.3328
G1 X137.371 Y113.363 E15.37119
G1 X137.011 Y113.656 E15.39435
G1 X136.018 Y114.413 E15.45665
G1 X135.383 Y114.847 E15.49502
G1 X134.97 Y115.081 E15.5187
G1 X133.857 Y115.665 E15.58141
G1 X133.159 Y115.986 E15.61974
G1 X132.727 Y116.143 E15.64267
G1 X131.539 Y116.533 E15.70505
G1 X130.797 Y116.734 E15.7434
G1 X130.326 Y116.821 E15.7673
G1 X129.083 Y117.007 E15.83
G1 X128.318 Y117.081 E15.86835
G1 X127.852 Y117.087 E15.8916
G1 X126.604 Y117.064 E15.95387
G1 X125.836 Y117.01 E15.99228
G1 X125.384 Y116.94 E16.0151
G1 X124.15 Y116.71 E16.07773
G1 X123.712 Y116.614 E16.1001
G1 X119.335 Y115.52 E16.32518
G1 X115.066 Y114.672 E16.54233
G1 X110.813 Y114.046 E16.75679
G1 X106.483 Y113.622 E16.97385
G1 X102.167 Y113.41 E17.18944
G1 X97.834 Y113.41 E17.40561
G1 X93.516 Y113.622 E17.6213
G1 X89.186 Y114.046 E17.83836
G1 X84.921 Y114.678 E18.05346
G1 X80.658 Y115.522 E18.27027
G1 X76.288 Y116.614 E18.495
G1 X75.85 Y116.71 E18.51737
G1 X74.616 Y116.94 E18.57999
G1 X73.853 Y117.041 E18.61839
G1 X73.396 Y117.064 E18.64122
G1 X72.148 Y117.087 E18.70349
G1 X71.38 Y117.061 E18.74183
G1 X70.917 Y117.007 E18.76508
G1 X69.674 Y116.821 E18.82779
G1 X68.92 Y116.667 E18.86618
G1 X68.461 Y116.533 E18.89004
G1 X67.273 Y116.143 E18.95242
G1 X66.556 Y115.865 E18.99079
G1 X66.143 Y115.665 E19.01368
G1 X65.03 Y115.081 E19.07639
G1 X64.368 Y114.688 E19.1148
G1 X63.982 Y114.413 E19.13844
G1 X62.989 Y113.656 E19.20073
G1 X62.402 Y113.159 E19.23911
G1 X62.074 Y112.83 E19.26229
G1 X61.215 Y111.913 E19.32497
G1 X60.719 Y111.325 E19.36335
G1 X60.448 Y110.942 E19.38676
G1 X59.756 Y109.898 E19.44925
G1 X59.365 Y109.236 E19.4876
G1 X59.162 Y108.816 E19.51088
G1 X58.653 Y107.671 E19.57339
G1 X58.378 Y106.953 E19.61175
G1 X58.246 Y106.5 E19.63529
G1 X57.936 Y105.289 E19.69766
G1 X57.784 Y104.535 E19.73603
G1 X57.731 Y104.074 E19.75918
G1 X57.626 Y102.826 E19.82166
G1 X57.601 Y102.058 E19.86
G1 X57.626 Y101.588 E19.88348
G1 X57.731 Y100.336 E19.94616
G1 X57.835 Y99.573 E19.98458
G1 X57.936 Y99.119 E20.00778
G1 X58.246 Y97.908 E20.07015
G1 X58.475 Y97.174 E20.10851
G1 X58.652 Y96.739 E20.13194
G1 X59.161 Y95.593 E20.1945
G1 X59.509 Y94.907 E20.23288
G1 X59.758 Y94.506 E20.25643
G1 X60.45 Y93.463 E20.31887
G1 X60.908 Y92.845 E20.35725
G1 X61.215 Y92.495 E20.38048
G1 X62.074 Y91.578 E20.44316
G1 X62.629 Y91.045 E20.48155
G1 X62.985 Y90.755 E20.50446
G1 X63.978 Y89.997 E20.56679
G0 F3600 X64.221 Y90.315
G1 F1800 X64.839 Y89.893 E20.60412
G1 X65.22 Y89.678 E20.62595
G1 X66.333 Y89.095 E20.68863
G1 X67.013 Y88.784 E20.72594
G1 X67.398 Y88.645 E20.74636
G1 X68.586 Y88.255 E20.80874
G1 X69.308 Y88.06 E20.84605
G1 X69.733 Y87.983 E20.8676
G1 X70.976 Y87.797 E20.9303
G1 X71.721 Y87.726 E20.96764
G1 X72.141 Y87.721 E20.98859
G1 X73.389 Y87.744 E21.05087
G1 X74.135 Y87.798 E21.08818
G1 X74.543 Y87.862 E21.10879
G1 X75.777 Y88.092 E21.17141
G1 X76.191 Y88.182 E21.19255
G1 X80.572 Y89.277 E21.41784
G1 X84.876 Y90.132 E21.63676
G1 X89.132 Y90.758 E21.85138
G1 X93.479 Y91.184 E22.06929
G1 X97.833 Y91.398 E22.28678
G1 X102.166 Y91.398 E22.50295
G1 X106.522 Y91.184 E22.72054
G1 X110.85 Y90.76 E22.93749
G1 X115.156 Y90.123 E23.15466
G1 X119.434 Y89.275 E23.37224
G1 X123.809 Y88.182 E23.59722
G1 X124.223 Y88.092 E23.61836
G1 X125.457 Y87.862 E23.68098
G1 X126.199 Y87.764 E23.71832
G1 X126.611 Y87.744 E23.7389
G1 X127.859 Y87.721 E23.80117
G1 X128.607 Y87.747 E23.83852
G1 X129.024 Y87.797 E23.85947
G1 X130.267 Y87.983 E23.92217
G1 X131 Y88.133 E23.9595
G1 X131.414 Y88.255 E23.98103
G1 X132.602 Y88.645 E24.04341
G1 X133.3 Y88.916 E24.08077
G1 X133.667 Y89.095 E24.10114
G1 X134.78 Y89.678 E24.16383
G1 X135.423 Y90.06 E24.20114
G1 X135.779 Y90.315 E24.22299
G1 X136.772 Y91.073 E24.28531
G1 X137.342 Y91.558 E24.32265
G1 X137.634 Y91.851 E24.34329
G1 X138.493 Y92.768 E24.40597
G1 X138.974 Y93.341 E24.4433
G1 X139.217 Y93.684 E24.46427
G1 X139.909 Y94.727 E24.52672
G1 X140.289 Y95.372 E24.56407
G1 X140.473 Y95.754 E24.58522
G1 X140.981 Y96.897 E24.64762
G1 X141.248 Y97.596 E24.68495
G1 X141.365 Y98.003 E24.70608
G1 X141.676 Y99.217 E24.7686
G1 X141.823 Y99.95 E24.8059
G1 X141.87 Y100.367 E24.82684
G1 X141.975 Y101.615 E24.88932
G1 X141.998 Y102.363 E24.92665
G1 X141.976 Y102.787 E24.94784
G1 X141.871 Y104.039 E25.01052
G1 X141.768 Y104.78 E25.04784
G1 X141.676 Y105.19 E25.06881
G1 X141.366 Y106.401 E25.13117
G1 X141.142 Y107.115 E25.1685
G1 X140.981 Y107.508 E25.18969
G1 X140.472 Y108.653 E25.25221
G1 X140.132 Y109.32 E25.28956
G1 X139.911 Y109.677 E25.31051
G1 X139.219 Y110.721 E25.37299
G1 X138.773 Y111.322 E25.41033
G1 X138.493 Y111.64 E25.43147
G1 X137.634 Y112.557 E25.49416
G1 X137.094 Y113.074 E25.53145
G1 X136.769 Y113.338 E25.55234
G1 X135.776 Y114.095 E25.61464
G1 X135.158 Y114.516 E25.65195
G1 X134.784 Y114.727 E25.67337
G1 X133.671 Y115.311 E25.73608
G1 X132.991 Y115.622 E25.77338
G1 X132.602 Y115.763 E25.79403
G1 X131.414 Y116.153 E25.85641
G1 X130.692 Y116.348 E25.89372
G1 X130.267 Y116.425 E25.91527
G1 X129.024 Y116.611 E25.97797
G1 X128.279 Y116.682 E26.01531
G1 X127.859 Y116.687 E26.03626
G1 X126.611 Y116.664 E26.09854
G1 X125.865 Y116.61 E26.13585
G1 X125.457 Y116.546 E26.15646
G1 X124.223 Y116.316 E26.21908
G1 X123.809 Y116.226 E26.24022
G1 X119.428 Y115.131 E26.46551
G1 X115.124 Y114.276 E26.68443
G1 X110.868 Y113.65 E26.89905
G1 X106.521 Y113.224 E27.11696
G1 X102.167 Y113.01 E27.33445
G1 X97.834 Y113.01 E27.55062
G1 X93.478 Y113.224 E27.7682
G1 X89.15 Y113.648 E27.98516
G1 X84.844 Y114.285 E28.20233
G1 X80.566 Y115.133 E28.41991
G1 X76.191 Y116.226 E28.64489
G1 X75.777 Y116.316 E28.66603
G1 X74.543 Y116.546 E28.72865
G1 X73.801 Y116.644 E28.76599
G1 X73.389 Y116.664 E28.78657
G1 X72.141 Y116.687 E28.84884
G1 X71.393 Y116.661 E28.88618
G1 X70.976 Y116.611 E28.90714
G1 X69.733 Y116.425 E28.96984
G1 X69 Y116.275 E29.00717
G1 X68.586 Y116.153 E29.0287
G1 X67.398 Y115.763 E29.09108
G1 X66.7 Y115.492 E29.12844
G1 X66.329 Y115.311 E29.14903
G1 X65.216 Y114.727 E29.21174
G1 X64.573 Y114.344 E29.24908
G1 X64.224 Y114.095 E29.27047
G1 X63.231 Y113.338 E29.33276
G1 X62.661 Y112.853 E29.3701
G1 X62.366 Y112.557 E29.39095
G1 X61.507 Y111.64 E29.45364
G1 X61.026 Y111.067 E29.49096
G1 X60.781 Y110.721 E29.51211
G1 X60.089 Y109.677 E29.5746
G1 X59.71 Y109.033 E29.61188
G1 X59.528 Y108.653 E29.6329
G1 X59.019 Y107.508 E29.69542
G1 X58.752 Y106.81 E29.7327
G1 X58.634 Y106.401 E29.75394
G1 X58.324 Y105.19 E29.8163
G1 X58.177 Y104.456 E29.85365
G1 X58.13 Y104.041 E29.87449
G1 X58.025 Y102.793 E29.93697
G1 X58.002 Y102.045 E29.97431
G1 X58.024 Y101.621 E29.99549
G1 X58.129 Y100.369 E30.05817
G1 X58.232 Y99.628 E30.09549
G1 X58.324 Y99.218 E30.11646
G1 X58.634 Y98.007 E30.17882
G1 X58.858 Y97.293 E30.21616
G1 X59.018 Y96.902 E30.23723
G1 X59.527 Y95.756 E30.29979
G1 X59.866 Y95.089 E30.33712
G1 X60.091 Y94.727 E30.35839
G1 X60.783 Y93.684 E30.42083
G1 X61.229 Y93.084 E30.45813
G1 X61.507 Y92.768 E30.47913
G1 X62.366 Y91.851 E30.54181
G1 X62.906 Y91.334 E30.57911
G1 X63.228 Y91.073 E30.59979
G1 X64.221 Y90.315 E30.66212
G0 F3600 X64.463 Y90.633
G1 F1800 X65.064 Y90.224 E30.69838
G1 X65.406 Y90.033 E30.71793
G1 X66.519 Y89.45 E30.78061
G1 X67.18 Y89.148 E30.81687
G1 X67.522 Y89.025 E30.835
G1 X68.71 Y88.635 E30.89738
G1 X69.412 Y88.447 E30.93364
G1 X69.792 Y88.379 E30.9529
G1 X71.035 Y88.193 E31.0156
G1 X71.758 Y88.125 E31.05183
G1 X72.134 Y88.121 E31.07059
G1 X73.382 Y88.144 E31.13287
G1 X74.106 Y88.197 E31.16908
G1 X74.469 Y88.255 E31.18742
G1 X75.703 Y88.485 E31.25005
G1 X76.094 Y88.57 E31.27001
G1 X80.48 Y89.666 E31.49556
G1 X84.802 Y90.524 E31.71539
G1 X89.094 Y91.156 E31.93183
G1 X93.462 Y91.584 E32.15079
G1 X97.813 Y91.798 E32.36813
G1 X102.186 Y91.798 E32.5863
G1 X106.559 Y91.583 E32.80473
G1 X110.888 Y91.159 E33.02174
G1 X115.231 Y90.516 E33.24077
G1 X119.508 Y89.669 E33.4583
G1 X123.906 Y88.57 E33.68446
G1 X124.297 Y88.485 E33.70442
G1 X125.531 Y88.255 E33.76705
G1 X126.251 Y88.161 E33.80328
G1 X126.618 Y88.144 E33.8216
G1 X127.866 Y88.121 E33.88388
G1 X128.592 Y88.148 E33.92012
G1 X128.965 Y88.193 E33.93887
G1 X130.208 Y88.379 E34.00157
G1 X130.919 Y88.526 E34.03779
G1 X131.29 Y88.635 E34.05708
G1 X132.478 Y89.025 E34.11947
G1 X133.154 Y89.289 E34.15567
G1 X133.481 Y89.45 E34.17386
G1 X134.594 Y90.033 E34.23654
G1 X135.218 Y90.404 E34.27276
G1 X135.537 Y90.633 E34.29235
G1 X136.53 Y91.391 E34.35468
G1 X137.082 Y91.863 E34.39091
G1 X137.342 Y92.125 E34.40933
G1 X138.201 Y93.042 E34.47201
G1 X138.667 Y93.599 E34.50824
G1 X138.884 Y93.905 E34.52696
G1 X139.576 Y94.948 E34.58941
G1 X139.943 Y95.575 E34.62565
G1 X140.107 Y95.916 E34.64453
G1 X140.615 Y97.059 E34.70693
G1 X140.873 Y97.738 E34.74317
G1 X140.978 Y98.102 E34.76207
