;FLAVOR:Marlin
;TIME:13258
;Filament used: 11.4263m
;Layer height: 0.15
;Generated with Cura_SteamEngine 4.0.0
M140 S60
M105
M190 S60
M104 S200
M105
M109 S200
M82 ;absolute extrusion mode
G21 ;metric values
G90 ;absolute positioning
M82 ;set extruder to absolute mode
M107 ;start with the fan off
G28 X0 Y0 ;move X/Y to min endstops
G28 Z0 ;move Z to min endstops
G1 Z15.0 F9000 ;move the platform down 15mm
G92 E0 ;zero the extruded length
G1 F200 E3 ;extrude 3mm of feed stock
G92 E0 ;zero the extruded length again
G1 F9000
;Put printing message on LCD screen
M117 Printing...
G92 E0
G1 F1500 E-6.5
;LAYER_COUNT:26
;LAYER:0
M107
G0 F3600 X20.411 Y63.847 Z0.3
;TYPE:SKIRT
G1 F1500 E0
G1 F1800 X20.898 Y63.697 E0.02542
G1 X22.489 Y63.263 E0.1077
G1 X23.261 Y63.094 E0.14713
G1 X23.755 Y63.028 E0.17199
G1 X25.401 Y62.861 E0.25453
G1 X26.189 Y62.821 E0.2939
G1 X26.688 Y62.837 E0.3188
G1 X28.337 Y62.943 E0.40124
G1 X29.122 Y63.034 E0.44067
G1 X29.611 Y63.131 E0.46554
G1 X31.217 Y63.506 E0.54782
G1 X31.837 Y63.678 E0.57992
G1 X40.199 Y66.375 E1.01826
G1 X45.088 Y67.239 E1.26596
G1 X50.23 Y67.713 E1.52358
G1 X55.414 Y67.757 E1.78222
G1 X60.349 Y67.389 E2.02911
G1 X72.223 Y64.839 E2.63501
G1 X72.564 Y64.481 E2.65968
G1 X72.967 Y63.878 E2.69586
G1 X73.257 Y63.225 E2.73151
G1 X73.43 Y62.529 E2.76729
G1 X73.483 Y61.811 E2.80321
G1 X73.389 Y60.869 E2.85044
G1 X72.22 Y55.428 E3.12809
G1 X72.11 Y54.791 E3.16034
G1 X71.898 Y53.152 E3.24279
G1 X71.837 Y52.364 E3.28222
G1 X71.839 Y51.867 E3.30701
G1 X71.899 Y50.221 E3.38919
G1 X71.968 Y49.434 E3.4286
G1 X72.052 Y48.943 E3.45345
G1 X72.383 Y47.324 E3.5359
G1 X72.58 Y46.559 E3.57531
G1 X72.745 Y46.087 E3.60025
G1 X73.339 Y44.542 E3.68284
G1 X73.659 Y43.82 E3.72224
G1 X73.897 Y43.384 E3.74702
G1 X74.733 Y41.964 E3.82923
G1 X75.168 Y41.304 E3.86866
G1 X75.479 Y40.909 E3.89375
G1 X76.54 Y39.644 E3.97612
G1 X77.077 Y39.065 E4.01551
G1 X77.444 Y38.73 E4.0403
G1 X78.701 Y37.654 E4.12285
G1 X79.326 Y37.172 E4.16223
G1 X79.75 Y36.897 E4.18744
G1 X81.162 Y36.047 E4.26967
G1 X81.858 Y35.675 E4.30904
G1 X82.314 Y35.478 E4.33382
G1 X83.85 Y34.87 E4.41624
G1 X84.598 Y34.616 E4.45565
G1 X85.08 Y34.497 E4.48042
G1 X86.697 Y34.149 E4.56294
G1 X87.476 Y34.022 E4.60232
G1 X87.979 Y33.982 E4.62749
G1 X89.628 Y33.906 E4.70985
G1 X90.418 Y33.91 E4.74926
G1 X90.912 Y33.953 E4.774
G1 X92.553 Y34.149 E4.85645
G1 X93.331 Y34.282 E4.89583
G1 X93.815 Y34.407 E4.92077
G1 X95.397 Y34.869 E5.00299
G1 X96.142 Y35.128 E5.04234
G1 X96.602 Y35.332 E5.06745
G1 X98.093 Y36.052 E5.15005
G1 X98.786 Y36.431 E5.18946
G1 X99.204 Y36.707 E5.21445
G1 X100.552 Y37.66 E5.29681
G1 X101.173 Y38.148 E5.33621
G1 X101.538 Y38.488 E5.3611
G1 X102.71 Y39.649 E5.4434
G1 X103.243 Y40.232 E5.48281
G1 X103.547 Y40.626 E5.50764
G1 X104.513 Y41.965 E5.59001
G1 X104.942 Y42.628 E5.62941
G1 X105.175 Y43.063 E5.65403
G1 X105.909 Y44.543 E5.73645
G1 X106.223 Y45.268 E5.77587
G1 X106.387 Y45.752 E5.80136
G1 X106.865 Y47.333 E5.88376
G1 X107.025 Y47.95 E5.91557
G1 X108.195 Y53.392 E6.19327
G1 X108.498 Y54.294 E6.24074
G1 X108.838 Y54.921 E6.27633
G1 X109.286 Y55.49 E6.31246
G1 X109.816 Y55.964 E6.34793
G1 X110.42 Y56.341 E6.38345
G1 X110.89 Y56.532 E6.40876
G1 X122.762 Y53.982 E7.01457
G1 X127.416 Y52.291 E7.26161
G1 X132.121 Y50.123 E7.52007
G1 X136.618 Y47.577 E7.77788
G1 X140.717 Y44.784 E8.02534
G1 X147.233 Y38.892 E8.46362
G1 X147.724 Y38.483 E8.4955
G1 X149.035 Y37.48 E8.57786
G1 X149.686 Y37.033 E8.61725
G1 X150.127 Y36.78 E8.64262
G1 X151.59 Y36.006 E8.72519
G1 X152.306 Y35.673 E8.76459
G1 X152.769 Y35.502 E8.78921
G1 X154.333 Y34.98 E8.87147
G1 X155.093 Y34.768 E8.91084
G1 X155.586 Y34.674 E8.93588
G1 X157.221 Y34.416 E9.01846
G1 X158.006 Y34.333 E9.05784
G1 X158.503 Y34.321 E9.08264
G1 X160.151 Y34.335 E9.16486
G1 X160.94 Y34.382 E9.2043
G1 X161.444 Y34.454 E9.2297
G1 X163.072 Y34.742 E9.31218
G1 X163.841 Y34.919 E9.35155
G1 X164.31 Y35.068 E9.3761
G1 X165.865 Y35.617 E9.45837
G1 X166.595 Y35.917 E9.49775
G1 X167.038 Y36.144 E9.52258
G1 X168.487 Y36.944 E9.60516
G1 X169.158 Y37.36 E9.64455
G1 X169.561 Y37.658 E9.66955
G1 X170.856 Y38.684 E9.75198
G1 X171.449 Y39.205 E9.79136
G1 X171.8 Y39.569 E9.81659
G1 X172.905 Y40.792 E9.89882
G1 X173.404 Y41.404 E9.93821
G1 X173.684 Y41.811 E9.96286
G1 X174.577 Y43.204 E10.04541
G1 X174.969 Y43.89 E10.08483
G1 X175.181 Y44.344 E10.10983
G1 X175.83 Y45.86 E10.1921
G1 X176.103 Y46.601 E10.2315
G1 X176.237 Y47.082 E10.25641
G1 X176.628 Y48.685 E10.33873
G1 X176.776 Y49.46 E10.37809
G1 X176.83 Y49.974 E10.40388
G1 X176.95 Y51.645 E10.48746
G1 X176.967 Y52.435 E10.52688
G1 X176.937 Y52.917 E10.55097
G1 X176.788 Y54.541 E10.63234
G1 X176.677 Y55.322 E10.67169
G1 X176.565 Y55.81 E10.69667
G1 X176.146 Y57.405 E10.77895
G1 X175.907 Y58.157 E10.81831
G1 X175.717 Y58.619 E10.84324
G1 X175.04 Y60.126 E10.92566
G1 X174.68 Y60.829 E10.96506
G1 X174.41 Y61.264 E10.99061
G1 X173.485 Y62.648 E11.07366
G1 X173.013 Y63.282 E11.11309
G1 X172.693 Y63.646 E11.13727
G1 X171.572 Y64.843 E11.21909
G1 X171.111 Y65.296 E11.25133
G1 X163.403 Y72.266 E11.76979
G1 X162.697 Y73.303 E11.83238
G1 X170.146 Y107.98 E13.60189
G1 X171.212 Y108.632 E13.66423
G1 X181.152 Y111.842 E14.18536
G1 X181.758 Y112.066 E14.21759
G1 X183.237 Y112.683 E14.29754
G1 X183.95 Y113.024 E14.33697
G1 X184.377 Y113.273 E14.36163
G1 X185.779 Y114.152 E14.44419
G1 X186.426 Y114.605 E14.48359
G1 X186.81 Y114.924 E14.5085
G1 X188.044 Y116.018 E14.59077
G1 X188.608 Y116.572 E14.63021
G1 X188.934 Y116.95 E14.65512
G1 X189.975 Y118.237 E14.7377
G1 X190.44 Y118.875 E14.77709
G1 X190.7 Y119.302 E14.80203
G1 X191.511 Y120.736 E14.88422
G1 X191.865 Y121.442 E14.92362
G1 X192.051 Y121.908 E14.94866
G1 X192.616 Y123.46 E15.03106
G1 X192.849 Y124.215 E15.07048
G1 X192.955 Y124.7 E15.09524
G1 X193.258 Y126.327 E15.17781
G1 X193.363 Y127.11 E15.21723
G1 X193.389 Y127.608 E15.2421
G1 X193.42 Y129.255 E15.32429
G1 X193.394 Y130.044 E15.36367
G1 X193.338 Y130.537 E15.38843
G1 X193.097 Y132.175 E15.47103
G1 X192.943 Y132.95 E15.51045
G1 X192.804 Y133.434 E15.53557
G1 X192.298 Y135.003 E15.61782
G1 X192.017 Y135.741 E15.65722
G1 X191.802 Y136.193 E15.68219
G1 X191.043 Y137.66 E15.76459
G1 X190.645 Y138.342 E15.80399
G1 X190.357 Y138.753 E15.82903
G1 X189.365 Y140.077 E15.91156
G1 X188.86 Y140.684 E15.95096
G1 X188.514 Y141.037 E15.97562
G1 X187.323 Y142.176 E16.05783
G1 X186.725 Y142.692 E16.09724
G1 X186.317 Y142.99 E16.12245
G1 X184.949 Y143.92 E16.20497
G1 X184.275 Y144.33 E16.24433
G1 X183.833 Y144.551 E16.26899
G1 X182.334 Y145.243 E16.35136
G1 X181.601 Y145.537 E16.39076
G1 X181.122 Y145.685 E16.41577
G1 X179.531 Y146.12 E16.49806
G1 X178.76 Y146.289 E16.53744
G1 X178.261 Y146.356 E16.56256
G1 X176.614 Y146.523 E16.64515
G1 X175.825 Y146.563 E16.68456
G1 X175.327 Y146.547 E16.70942
G1 X173.678 Y146.441 E16.79186
G1 X172.893 Y146.35 E16.83128
G1 X172.403 Y146.252 E16.85621
G1 X170.798 Y145.877 E16.93844
G1 X170.179 Y145.706 E16.97048
G1 X161.818 Y143.01 E17.40876
G1 X156.923 Y142.143 E17.65678
G1 X151.789 Y141.671 E17.91399
G1 X146.565 Y141.63 E18.17463
G1 X141.666 Y141.995 E18.41972
G1 X129.797 Y144.545 E19.02538
G1 X129.447 Y144.911 E19.05064
G1 X129.049 Y145.506 E19.08636
G1 X128.759 Y146.161 E19.12209
G1 X128.585 Y146.856 E19.15784
G1 X128.533 Y147.569 E19.1935
G1 X128.627 Y148.513 E19.24083
G1 X129.796 Y153.955 E19.51853
G1 X129.906 Y154.593 E19.55083
G1 X130.118 Y156.233 E19.63333
G1 X130.179 Y157.02 E19.67271
G1 X130.177 Y157.517 E19.69751
G1 X130.117 Y159.163 E19.77968
G1 X130.048 Y159.95 E19.81909
G1 X129.964 Y160.441 E19.84395
G1 X129.633 Y162.06 E19.92639
G1 X129.436 Y162.825 E19.9658
G1 X129.271 Y163.297 E19.99075
G1 X128.677 Y164.842 E20.07333
G1 X128.357 Y165.564 E20.11273
G1 X128.119 Y166 E20.13751
G1 X127.283 Y167.42 E20.21972
G1 X126.848 Y168.08 E20.25916
G1 X126.535 Y168.478 E20.28442
G1 X125.473 Y169.743 E20.36682
G1 X124.935 Y170.322 E20.40625
G1 X124.571 Y170.654 E20.43083
G1 X123.315 Y171.729 E20.51331
G1 X122.69 Y172.211 E20.55269
G1 X122.269 Y172.483 E20.57769
G1 X120.857 Y173.334 E20.65994
G1 X120.161 Y173.707 E20.69934
G1 X119.702 Y173.906 E20.7243
G1 X118.166 Y174.514 E20.80671
G1 X117.418 Y174.768 E20.84613
G1 X116.935 Y174.888 E20.87095
G1 X115.317 Y175.236 E20.95352
G1 X114.538 Y175.362 E20.99289
G1 X114.036 Y175.402 E21.01802
G1 X112.387 Y175.478 E21.10037
G1 X111.597 Y175.474 E21.13979
G1 X111.102 Y175.431 E21.16458
G1 X109.462 Y175.235 E21.24698
G1 X108.684 Y175.102 E21.28636
G1 X108.204 Y174.978 E21.31109
G1 X106.62 Y174.516 E21.39341
G1 X105.874 Y174.257 E21.43281
G1 X105.408 Y174.05 E21.45824
G1 X103.919 Y173.33 E21.54076
G1 X103.227 Y172.951 E21.58012
G1 X102.811 Y172.676 E21.605
G1 X101.462 Y171.722 E21.68743
G1 X100.841 Y171.234 E21.72684
G1 X100.477 Y170.895 E21.75165
G1 X99.306 Y169.735 E21.83389
G1 X98.773 Y169.152 E21.87329
G1 X98.47 Y168.758 E21.89809
G1 X97.503 Y167.418 E21.98053
G1 X97.074 Y166.755 E22.01993
G1 X96.838 Y166.316 E22.0448
G1 X96.104 Y164.834 E22.12731
G1 X95.79 Y164.109 E22.16672
G1 X95.628 Y163.629 E22.192
G1 X95.151 Y162.051 E22.27424
G1 X94.994 Y161.445 E22.30548
G1 X93.8 Y155.932 E22.5869
G1 X93.517 Y155.089 E22.63126
G1 X93.176 Y154.458 E22.66704
G1 X92.732 Y153.896 E22.70278
G1 X92.202 Y153.422 E22.73825
G1 X91.588 Y153.039 E22.77435
G1 X91.128 Y152.851 E22.79915
G1 X79.254 Y155.402 E23.40506
G1 X74.6 Y157.093 E23.6521
G1 X69.895 Y159.261 E23.91056
G1 X65.398 Y161.807 E24.16837
G1 X61.299 Y164.6 E24.41583
G1 X54.783 Y170.492 E24.85411
G1 X54.289 Y170.903 E24.88617
G1 X52.977 Y171.906 E24.96856
G1 X52.326 Y172.353 E25.00796
G1 X51.89 Y172.603 E25.03304
G1 X50.428 Y173.377 E25.11557
G1 X49.712 Y173.71 E25.15496
G1 X49.247 Y173.882 E25.1797
G1 X47.683 Y174.404 E25.26196
G1 X46.923 Y174.616 E25.30132
G1 X46.43 Y174.71 E25.32636
G1 X44.795 Y174.968 E25.40894
G1 X44.01 Y175.051 E25.44832
G1 X43.508 Y175.063 E25.47337
G1 X41.859 Y175.048 E25.55565
G1 X41.071 Y175.001 E25.59503
G1 X40.575 Y174.929 E25.62004
G1 X38.948 Y174.642 E25.70246
G1 X38.178 Y174.466 E25.74187
G1 X37.708 Y174.317 E25.76646
G1 X36.152 Y173.768 E25.84878
G1 X35.421 Y173.467 E25.88822
G1 X34.977 Y173.24 E25.9131
G1 X33.537 Y172.445 E25.99517
G1 X32.866 Y172.029 E26.03455
G1 X32.467 Y171.734 E26.05931
G1 X31.164 Y170.703 E26.14221
G1 X30.57 Y170.182 E26.18162
G1 X30.216 Y169.815 E26.20706
G1 X29.111 Y168.592 E26.2893
G1 X28.612 Y167.98 E26.32869
G1 X28.332 Y167.573 E26.35334
G1 X27.439 Y166.18 E26.43589
G1 X27.047 Y165.494 E26.47531
G1 X26.835 Y165.039 E26.50035
G1 X26.185 Y163.52 E26.58278
G1 X25.911 Y162.779 E26.6222
G1 X25.778 Y162.298 E26.64709
G1 X25.388 Y160.698 E26.72925
G1 X25.24 Y159.922 E26.76867
G1 X25.186 Y159.41 E26.79435
G1 X25.066 Y157.739 E26.87793
G1 X25.049 Y156.949 E26.91736
G1 X25.079 Y156.467 E26.94145
G1 X25.228 Y154.843 E27.02281
G1 X25.339 Y154.062 E27.06217
G1 X25.45 Y153.579 E27.08689
G1 X25.868 Y151.984 E27.16916
G1 X26.106 Y151.231 E27.20855
G1 X26.298 Y150.765 E27.2337
G1 X26.975 Y149.258 E27.31612
G1 X27.335 Y148.555 E27.35553
G1 X27.6 Y148.127 E27.38064
G1 X28.516 Y146.753 E27.46303
G1 X28.987 Y146.119 E27.50243
G1 X29.314 Y145.747 E27.52714
G1 X30.412 Y144.575 E27.60726
G1 X30.87 Y144.125 E27.6393
G1 X38.539 Y137.184 E28.15534
G1 X40.197 Y134.622 E28.30759
G1 X41.72 Y131.412 E28.48485
G1 X42.811 Y128.025 E28.66238
G1 X43.453 Y124.523 E28.84001
G1 X43.605 Y121.487 E28.99166
G1 X41.772 Y112.954 E29.42709
G1 X40.383 Y110.243 E29.57906
G1 X38.364 Y107.317 E29.75642
G1 X35.977 Y104.677 E29.93398
G1 X33.265 Y102.372 E30.11155
G1 X30.708 Y100.72 E30.26343
G1 X20.908 Y97.559 E30.77716
G1 X20.305 Y97.337 E30.80922
G1 X18.799 Y96.71 E30.8906
G1 X18.086 Y96.37 E30.93001
G1 X17.664 Y96.124 E30.95438
G1 X16.246 Y95.238 E31.0378
G1 X15.598 Y94.786 E31.07722
G1 X15.202 Y94.457 E31.1029
G1 X13.969 Y93.363 E31.18514
G1 X13.406 Y92.81 E31.22451
G1 X13.082 Y92.434 E31.24927
G1 X12.041 Y91.147 E31.33186
G1 X11.576 Y90.509 E31.37124
G1 X11.316 Y90.082 E31.39619
G1 X10.505 Y88.648 E31.47838
G1 X10.151 Y87.942 E31.51778
G1 X9.964 Y87.476 E31.54283
G1 X9.398 Y85.921 E31.62539
G1 X9.166 Y85.166 E31.66479
G1 X9.06 Y84.684 E31.68942
G1 X8.757 Y83.06 E31.77184
G1 X8.652 Y82.277 E31.81125
G1 X8.626 Y81.771 E31.83653
G1 X8.596 Y80.124 E31.91871
G1 X8.622 Y79.335 E31.95809
G1 X8.678 Y78.847 E31.9826
G1 X8.919 Y77.209 E32.0652
G1 X9.073 Y76.434 E32.10462
G1 X9.212 Y75.95 E32.12974
G1 X9.718 Y74.381 E32.21199
G1 X9.999 Y73.643 E32.25139
G1 X10.214 Y73.191 E32.27636
G1 X10.973 Y71.724 E32.35877
G1 X11.371 Y71.042 E32.39816
G1 X11.659 Y70.631 E32.4232
G1 X12.651 Y69.307 E32.50574
G1 X13.156 Y68.7 E32.54513
G1 X13.502 Y68.347 E32.56979
G1 X14.693 Y67.208 E32.65201
G1 X15.291 Y66.692 E32.69141
G1 X15.699 Y66.394 E32.71662
G1 X17.067 Y65.464 E32.79915
G1 X17.741 Y65.054 E32.83851
G1 X18.179 Y64.835 E32.86294
G1 X19.678 Y64.142 E32.94533
G1 X20.411 Y63.847 E32.98475
G0 F3600 X20.56 Y64.219
G1 F1800 X21.004 Y64.083 E33.00792
G1 X22.595 Y63.649 E33.09019
G1 X23.346 Y63.485 E33.12854
G1 X23.795 Y63.426 E33.15114
G1 X25.441 Y63.259 E33.23368
G1 X26.209 Y63.221 E33.27204
G1 X26.663 Y63.236 E33.2947
G1 X28.312 Y63.342 E33.37714
G1 X29.076 Y63.431 E33.41551
G1 X29.52 Y63.521 E33.43812
G1 X31.126 Y63.896 E33.52039
G1 X31.714 Y64.059 E33.55084
G1 X40.1 Y66.763 E33.99043
G1 X45.03 Y67.635 E34.2402
G1 X50.214 Y68.113 E34.49993
G1 X55.428 Y68.157 E34.76007
G1 X60.405 Y67.786 E35.00906
G1 X72.427 Y65.204 E35.62252
G1 X72.88 Y64.729 E35.65526
G1 X73.319 Y64.072 E35.69469
G1 X73.636 Y63.357 E35.73371
G1 X73.827 Y62.592 E35.77304
G1 X73.884 Y61.806 E35.81236
G1 X73.785 Y60.808 E35.8624
G1 X72.611 Y55.344 E36.14122
G1 X72.507 Y54.739 E36.17184
G1 X72.295 Y53.1 E36.25429
G1 X72.236 Y52.333 E36.29267
G1 X72.239 Y51.881 E36.31522
G1 X72.299 Y50.235 E36.3974
G1 X72.367 Y49.469 E36.43576
G1 X72.444 Y49.023 E36.45834
G1 X72.775 Y47.404 E36.54079
G1 X72.968 Y46.659 E36.57918
G1 X73.118 Y46.23 E36.60186
G1 X73.712 Y44.685 E36.68444
G1 X74.025 Y43.983 E36.72278
G1 X74.242 Y43.587 E36.74531
G1 X75.078 Y42.167 E36.82752
G1 X75.502 Y41.525 E36.86591
G1 X75.785 Y41.166 E36.88871
G1 X76.846 Y39.901 E36.97108
G1 X77.37 Y39.338 E37.00946
G1 X77.704 Y39.034 E37.03199
G1 X78.961 Y37.958 E37.11454
G1 X79.57 Y37.489 E37.15289
G1 X79.956 Y37.24 E37.1758
G1 X81.368 Y36.39 E37.25803
G1 X82.047 Y36.028 E37.29642
G1 X82.461 Y35.849 E37.31892
G1 X83.997 Y35.241 E37.40134
G1 X84.726 Y34.996 E37.4397
G1 X85.164 Y34.888 E37.46221
G1 X86.781 Y34.54 E37.54473
G1 X87.54 Y34.417 E37.58309
G1 X87.997 Y34.382 E37.60596
G1 X89.646 Y34.306 E37.68831
G1 X90.415 Y34.31 E37.72668
G1 X90.865 Y34.35 E37.74922
G1 X92.506 Y34.546 E37.83167
G1 X93.264 Y34.677 E37.87005
G1 X93.702 Y34.791 E37.89263
G1 X95.284 Y35.253 E37.97485
G1 X96.011 Y35.506 E38.01325
G1 X96.428 Y35.692 E38.03603
G1 X97.919 Y36.412 E38.11864
G1 X98.593 Y36.782 E38.157
G1 X98.973 Y37.034 E38.17975
G1 X100.321 Y37.987 E38.26211
G1 X100.925 Y38.463 E38.30048
G1 X101.257 Y38.772 E38.3231
G1 X102.429 Y39.933 E38.40541
G1 X102.946 Y40.502 E38.44376
G1 X103.222 Y40.86 E38.46631
G1 X104.188 Y42.199 E38.54869
G1 X104.605 Y42.846 E38.58709
G1 X104.816 Y43.241 E38.60943
G1 X105.55 Y44.721 E38.69185
G1 X105.856 Y45.427 E38.73024
G1 X106.004 Y45.867 E38.7534
G1 X106.482 Y47.448 E38.8358
G1 X106.634 Y48.034 E38.86601
G1 X107.809 Y53.499 E39.14489
G1 X108.128 Y54.449 E39.19488
G1 X108.506 Y55.147 E39.23448
G1 X108.99 Y55.761 E39.27349
G1 X109.576 Y56.286 E39.31274
G1 X110.239 Y56.699 E39.35171
G1 X110.853 Y56.949 E39.38479
G1 X122.872 Y54.367 E39.9981
G1 X127.57 Y52.661 E40.24746
G1 X132.303 Y50.48 E40.50745
G1 X136.825 Y47.92 E40.7667
G1 X140.968 Y45.096 E41.01685
G1 X147.501 Y39.189 E41.45625
G1 X147.968 Y38.801 E41.48655
G1 X149.279 Y37.798 E41.5689
G1 X149.913 Y37.363 E41.60726
G1 X150.314 Y37.134 E41.6303
G1 X151.777 Y36.36 E41.71287
G1 X152.475 Y36.036 E41.75126
G1 X152.895 Y35.882 E41.77358
G1 X154.459 Y35.36 E41.85584
G1 X155.2 Y35.154 E41.89421
G1 X155.649 Y35.069 E41.91701
G1 X157.284 Y34.811 E41.99959
G1 X158.049 Y34.731 E42.03796
G1 X158.5 Y34.721 E42.06047
G1 X160.148 Y34.735 E42.14269
G1 X160.916 Y34.782 E42.18108
