;FLAVOR:Marlin
;TIME:2739
;Filament used: 2.38515m
;Layer height: 0.15
;Generated with Cura_SteamEngine 4.0.0
M140 S60
M105
M190 S60
M104 S200
M105
M109 S200
M82 ;absolute extrusion mode
G21 ;metric values
G90 ;absolute positioning
M82 ;set extruder to absolute mode
M107 ;start with the fan off
G28 X0 Y0 ;move X/Y to min endstops
G28 Z0 ;move Z to min endstops
G1 Z15.0 F9000 ;move the platform down 15mm
G92 E0 ;zero the extruded length
G1 F200 E3 ;extrude 3mm of feed stock
G92 E0 ;zero the extruded length again
G1 F9000
;Put printing message on LCD screen
M117 Printing...
G92 E0
G1 F1500 E-6.5
;LAYER_COUNT:220
;LAYER:0
M107
G0 F3600 X82.985 Y80.002 Z0.3
;TYPE:SKIRT
G1 F1500 E0
G1 F1800 X83.102 Y79.885 E0.00825
G1 X83.688 Y79.355 E0.04767
G1 X84.324 Y78.888 E0.08704
G1 X85.004 Y78.487 E0.12642
G1 X85.722 Y78.157 E0.16585
G1 X86.469 Y77.902 E0.20523
G1 X87.238 Y77.723 E0.24462
G1 X88.022 Y77.623 E0.28405
G1 X88.617 Y77.6 E0.31376
G1 X98.383 Y77.6 E0.80098
G1 X99.172 Y77.64 E0.8404
G1 X99.952 Y77.759 E0.87976
G1 X100.717 Y77.957 E0.91919
G1 X101.457 Y78.231 E0.95855
G1 X102.166 Y78.579 E0.99796
G1 X102.837 Y78.997 E1.0374
G1 X103.461 Y79.48 E1.07677
G1 X103.898 Y79.885 E1.10649
G1 X104.015 Y80.002 E1.11475
G1 X104.545 Y80.588 E1.15417
G1 X104.868 Y81.027 E1.18136
G1 X104.897 Y80.98 E1.18411
G1 X105.38 Y80.356 E1.22348
G1 X105.785 Y79.919 E1.25321
G1 X106.019 Y79.685 E1.26972
G1 X106.605 Y79.155 E1.30914
G1 X107.241 Y78.688 E1.3485
G1 X107.921 Y78.287 E1.38789
G1 X108.639 Y77.957 E1.42731
G1 X109.386 Y77.702 E1.46669
G1 X110.155 Y77.523 E1.50608
G1 X110.939 Y77.423 E1.54551
G1 X111.534 Y77.4 E1.57522
G1 X116.466 Y77.4 E1.82128
G1 X117.255 Y77.44 E1.86069
G1 X118.035 Y77.559 E1.90005
G1 X118.8 Y77.757 E1.93948
G1 X119.54 Y78.031 E1.97885
G1 X120.249 Y78.379 E2.01825
G1 X120.92 Y78.797 E2.05769
G1 X121.544 Y79.28 E2.09706
G1 X121.981 Y79.685 E2.12678
G1 X122.215 Y79.919 E2.14329
G1 X122.745 Y80.505 E2.18271
G1 X123.212 Y81.141 E2.22208
G1 X123.613 Y81.821 E2.26146
G1 X123.943 Y82.539 E2.30089
G1 X124.198 Y83.286 E2.34027
G1 X124.377 Y84.055 E2.37966
G1 X124.477 Y84.839 E2.41909
G1 X124.5 Y85.434 E2.4488
G1 X124.5 Y90.016 E2.67739
G1 X124.46 Y90.805 E2.71681
G1 X124.341 Y91.585 E2.75617
G1 X124.143 Y92.35 E2.79559
G1 X123.869 Y93.09 E2.83496
G1 X123.521 Y93.799 E2.87437
G1 X123.252 Y94.231 E2.89976
G1 X123.413 Y94.504 E2.91557
G1 X123.743 Y95.222 E2.95499
G1 X123.998 Y95.969 E2.99437
G1 X124.177 Y96.738 E3.03376
G1 X124.277 Y97.522 E3.07319
G1 X124.3 Y98.117 E3.1029
G1 X124.3 Y101.883 E3.29079
G1 X124.26 Y102.672 E3.3302
G1 X124.141 Y103.452 E3.36956
G1 X123.943 Y104.217 E3.40899
G1 X123.669 Y104.957 E3.44836
G1 X123.321 Y105.666 E3.48776
G1 X122.903 Y106.337 E3.5272
G1 X122.42 Y106.961 E3.56657
G1 X122.015 Y107.398 E3.59629
G1 X121.898 Y107.515 E3.60455
G1 X121.312 Y108.045 E3.64397
G1 X120.676 Y108.512 E3.68333
G1 X119.996 Y108.913 E3.72272
G1 X119.278 Y109.243 E3.76214
G1 X118.531 Y109.498 E3.80152
G1 X117.762 Y109.677 E3.84091
G1 X116.978 Y109.777 E3.88034
G1 X116.383 Y109.8 E3.91005
G1 X109.8 Y109.8 E4.23848
G1 X109.8 Y114.483 E4.47211
G1 X109.76 Y115.272 E4.51153
G1 X109.641 Y116.052 E4.55089
G1 X109.443 Y116.817 E4.59032
G1 X109.169 Y117.557 E4.62968
G1 X108.821 Y118.266 E4.66909
G1 X108.403 Y118.937 E4.70853
G1 X107.92 Y119.561 E4.7479
G1 X107.515 Y119.998 E4.77762
G1 X107.398 Y120.115 E4.78588
G1 X106.812 Y120.645 E4.8253
G1 X106.176 Y121.112 E4.86466
G1 X105.496 Y121.513 E4.90405
G1 X104.778 Y121.843 E4.94347
G1 X104.031 Y122.098 E4.98285
G1 X103.262 Y122.277 E5.02224
G1 X102.478 Y122.377 E5.06167
G1 X101.883 Y122.4 E5.09138
G1 X92.117 Y122.4 E5.57861
G1 X91.328 Y122.36 E5.61802
G1 X90.548 Y122.241 E5.65738
G1 X89.783 Y122.043 E5.69681
G1 X89.043 Y121.769 E5.73618
G1 X88.334 Y121.421 E5.77558
G1 X87.663 Y121.003 E5.81502
G1 X87.039 Y120.52 E5.85439
G1 X86.602 Y120.115 E5.88411
G1 X86.485 Y119.998 E5.89237
G1 X85.955 Y119.412 E5.93179
G1 X85.488 Y118.776 E5.97115
G1 X85.087 Y118.096 E6.01054
G1 X84.757 Y117.378 E6.04996
G1 X84.502 Y116.631 E6.08934
G1 X84.323 Y115.862 E6.12873
G1 X84.223 Y115.078 E6.16816
G1 X84.2 Y114.483 E6.19787
G1 X84.2 Y109.8 E6.43151
G1 X83.617 Y109.8 E6.46059
G1 X82.828 Y109.76 E6.5
G1 X82.048 Y109.641 E6.53937
G1 X81.283 Y109.443 E6.57879
G1 X80.543 Y109.169 E6.61816
G1 X79.834 Y108.821 E6.65756
G1 X79.163 Y108.403 E6.69701
G1 X78.539 Y107.92 E6.73637
G1 X78.102 Y107.515 E6.7661
G1 X77.985 Y107.398 E6.77435
G1 X77.455 Y106.812 E6.81377
G1 X76.988 Y106.176 E6.85314
G1 X76.587 Y105.496 E6.89252
G1 X76.257 Y104.778 E6.93195
G1 X76.002 Y104.031 E6.97133
G1 X75.823 Y103.262 E7.01072
G1 X75.723 Y102.478 E7.05015
G1 X75.7 Y101.883 E7.07986
G1 X75.7 Y98.117 E7.26774
G1 X75.74 Y97.328 E7.30716
G1 X75.859 Y96.548 E7.34652
G1 X76.057 Y95.783 E7.38594
G1 X76.331 Y95.043 E7.42531
G1 X76.679 Y94.334 E7.46472
G1 X77.097 Y93.663 E7.50416
G1 X77.58 Y93.039 E7.54352
G1 X77.985 Y92.602 E7.57325
G1 X78.102 Y92.485 E7.5815
G1 X78.688 Y91.955 E7.62092
G1 X79.324 Y91.488 E7.66029
G1 X80.004 Y91.087 E7.69967
G1 X80.7 Y90.767 E7.73789
G1 X80.7 Y85.517 E7.99982
G1 X80.74 Y84.728 E8.03923
G1 X80.859 Y83.948 E8.07859
G1 X81.057 Y83.183 E8.11802
G1 X81.331 Y82.443 E8.15739
G1 X81.679 Y81.734 E8.19679
G1 X82.097 Y81.063 E8.23623
G1 X82.58 Y80.439 E8.2756
G1 X82.985 Y80.002 E8.30532
G0 F3600 X83.267 Y80.284
G1 F1800 X83.384 Y80.167 E8.31358
G1 X83.956 Y79.653 E8.35194
G1 X84.578 Y79.2 E8.39033
G1 X85.243 Y78.814 E8.42869
G1 X85.945 Y78.499 E8.46708
G1 X86.676 Y78.259 E8.50547
G1 X87.427 Y78.096 E8.54381
G1 X88.192 Y78.012 E8.5822
G1 X88.617 Y78 E8.60341
G1 X98.383 Y78 E9.09064
G1 X99.151 Y78.04 E9.12901
G1 X99.911 Y78.159 E9.16739
G1 X100.654 Y78.357 E9.20575
G1 X101.373 Y78.631 E9.24414
G1 X102.059 Y78.978 E9.28249
G1 X102.706 Y79.394 E9.32087
G1 X103.306 Y79.875 E9.35923
G1 X103.616 Y80.167 E9.38048
G1 X103.733 Y80.284 E9.38873
G1 X104.247 Y80.856 E9.4271
G1 X104.7 Y81.478 E9.46549
G1 X104.871 Y81.772 E9.48246
G1 X104.878 Y81.758 E9.48324
G1 X105.294 Y81.111 E9.52161
G1 X105.775 Y80.511 E9.55998
G1 X106.067 Y80.201 E9.58123
G1 X106.301 Y79.967 E9.59774
G1 X106.873 Y79.453 E9.6361
G1 X107.495 Y79 E9.67449
G1 X108.16 Y78.614 E9.71285
G1 X108.862 Y78.299 E9.75124
G1 X109.593 Y78.059 E9.78962
G1 X110.344 Y77.896 E9.82796
G1 X111.109 Y77.812 E9.86636
G1 X111.534 Y77.8 E9.88757
G1 X116.466 Y77.8 E10.13363
G1 X117.234 Y77.84 E10.172
G1 X117.994 Y77.959 E10.21038
G1 X118.737 Y78.157 E10.24874
G1 X119.456 Y78.431 E10.28713
G1 X120.142 Y78.778 E10.32548
G1 X120.789 Y79.194 E10.36386
G1 X121.389 Y79.675 E10.40222
G1 X121.699 Y79.967 E10.42347
G1 X121.933 Y80.201 E10.43998
G1 X122.447 Y80.773 E10.47834
G1 X122.9 Y81.395 E10.51673
G1 X123.286 Y82.06 E10.55509
G1 X123.601 Y82.762 E10.59348
G1 X123.841 Y83.493 E10.63187
G1 X124.004 Y84.244 E10.67021
G1 X124.088 Y85.009 E10.7086
G1 X124.1 Y85.434 E10.72981
G1 X124.1 Y90.016 E10.95841
G1 X124.06 Y90.784 E10.99678
G1 X123.941 Y91.544 E11.03516
G1 X123.743 Y92.287 E11.07352
G1 X123.469 Y93.006 E11.11191
G1 X123.122 Y93.692 E11.15026
G1 X122.782 Y94.22 E11.18159
G1 X123.086 Y94.743 E11.21177
G1 X123.401 Y95.445 E11.25016
G1 X123.641 Y96.176 E11.28854
G1 X123.804 Y96.927 E11.32688
G1 X123.888 Y97.692 E11.36528
G1 X123.9 Y98.117 E11.38649
G1 X123.9 Y101.883 E11.57438
G1 X123.86 Y102.651 E11.61275
G1 X123.741 Y103.411 E11.65112
G1 X123.543 Y104.154 E11.68949
G1 X123.269 Y104.873 E11.72787
G1 X122.922 Y105.559 E11.76623
G1 X122.506 Y106.206 E11.8046
G1 X122.025 Y106.806 E11.84297
G1 X121.733 Y107.116 E11.86421
G1 X121.616 Y107.233 E11.87247
G1 X121.044 Y107.747 E11.91084
G1 X120.422 Y108.2 E11.94923
G1 X119.757 Y108.586 E11.98759
G1 X119.055 Y108.901 E12.02597
G1 X118.324 Y109.141 E12.06436
G1 X117.573 Y109.304 E12.1027
G1 X116.808 Y109.388 E12.14109
G1 X116.383 Y109.4 E12.16231
G1 X109.4 Y109.4 E12.51069
G1 X109.4 Y114.483 E12.76428
G1 X109.36 Y115.251 E12.80265
G1 X109.241 Y116.011 E12.84103
G1 X109.043 Y116.754 E12.87939
G1 X108.769 Y117.473 E12.91778
G1 X108.422 Y118.159 E12.95613
G1 X108.006 Y118.806 E12.99451
G1 X107.525 Y119.406 E13.03287
G1 X107.233 Y119.716 E13.05412
G1 X107.116 Y119.833 E13.06237
G1 X106.544 Y120.347 E13.10074
G1 X105.922 Y120.8 E13.13913
G1 X105.257 Y121.186 E13.17749
G1 X104.555 Y121.501 E13.21588
G1 X103.824 Y121.741 E13.25426
G1 X103.073 Y121.904 E13.2926
G1 X102.308 Y121.988 E13.331
G1 X101.883 Y122 E13.35221
G1 X92.117 Y122 E13.83944
G1 X91.349 Y121.96 E13.8778
G1 X90.589 Y121.841 E13.91618
G1 X89.846 Y121.643 E13.95454
G1 X89.127 Y121.369 E13.99293
G1 X88.441 Y121.022 E14.03129
G1 X87.794 Y120.606 E14.06966
G1 X87.194 Y120.125 E14.10803
G1 X86.884 Y119.833 E14.12927
G1 X86.767 Y119.716 E14.13753
G1 X86.253 Y119.144 E14.1759
G1 X85.8 Y118.522 E14.21428
G1 X85.414 Y117.857 E14.25265
G1 X85.099 Y117.155 E14.29103
G1 X84.859 Y116.424 E14.32942
G1 X84.696 Y115.673 E14.36776
G1 X84.612 Y114.908 E14.40615
G1 X84.6 Y114.483 E14.42736
G1 X84.6 Y109.4 E14.68096
G1 X83.617 Y109.4 E14.73
G1 X82.849 Y109.36 E14.76837
G1 X82.089 Y109.241 E14.80675
G1 X81.346 Y109.043 E14.84511
G1 X80.627 Y108.769 E14.88349
G1 X79.941 Y108.422 E14.92185
G1 X79.294 Y108.006 E14.96022
G1 X78.694 Y107.525 E14.99859
G1 X78.384 Y107.233 E15.01984
G1 X78.267 Y107.116 E15.02809
G1 X77.753 Y106.544 E15.06646
G1 X77.3 Y105.922 E15.10485
G1 X76.914 Y105.257 E15.14321
G1 X76.599 Y104.555 E15.18159
G1 X76.359 Y103.824 E15.21998
G1 X76.196 Y103.073 E15.25832
G1 X76.112 Y102.308 E15.29672
G1 X76.1 Y101.883 E15.31793
G1 X76.1 Y98.117 E15.50581
G1 X76.14 Y97.349 E15.54418
G1 X76.259 Y96.589 E15.58256
G1 X76.457 Y95.846 E15.62092
G1 X76.731 Y95.127 E15.65931
G1 X77.078 Y94.441 E15.69766
G1 X77.494 Y93.794 E15.73604
G1 X77.975 Y93.194 E15.7744
G1 X78.267 Y92.884 E15.79565
G1 X78.384 Y92.767 E15.80391
G1 X78.956 Y92.253 E15.84227
G1 X79.578 Y91.8 E15.88066
G1 X80.243 Y91.414 E15.91902
G1 X80.945 Y91.099 E15.95741
G1 X81.1 Y91.048 E15.96555
G1 X81.1 Y85.517 E16.24149
G1 X81.14 Y84.749 E16.27986
G1 X81.259 Y83.989 E16.31824
G1 X81.457 Y83.246 E16.3566
G1 X81.731 Y82.527 E16.39499
G1 X82.078 Y81.841 E16.43334
G1 X82.494 Y81.194 E16.47172
G1 X82.975 Y80.594 E16.51008
G1 X83.267 Y80.284 E16.53133
G0 F3600 X83.55 Y80.567
G1 F1800 X83.667 Y80.45 E16.53959
G1 X84.224 Y79.95 E16.57693
G1 X84.83 Y79.513 E16.6142
G1 X85.48 Y79.142 E16.65154
G1 X86.166 Y78.843 E16.68888
G1 X86.88 Y78.619 E16.72621
G1 X87.613 Y78.472 E16.76351
G1 X88.617 Y78.4 E16.81373
G1 X98.383 Y78.4 E17.30095
G1 X99.13 Y78.44 E17.33827
G1 X99.868 Y78.559 E17.37557
G1 X100.59 Y78.757 E17.41292
G1 X101.286 Y79.03 E17.45022
G1 X101.949 Y79.377 E17.48755
G1 X102.572 Y79.792 E17.5249
G1 X103.333 Y80.45 E17.57509
G1 X103.45 Y80.567 E17.58334
G1 X103.95 Y81.124 E17.62069
G1 X104.387 Y81.73 E17.65796
G1 X104.758 Y82.38 E17.6953
G1 X104.88 Y82.659 E17.71049
G1 X104.93 Y82.531 E17.71735
G1 X105.277 Y81.868 E17.75468
G1 X105.692 Y81.245 E17.79203
G1 X106.35 Y80.484 E17.84222
G1 X106.584 Y80.25 E17.85873
G1 X107.141 Y79.75 E17.89607
G1 X107.747 Y79.313 E17.93335
G1 X108.397 Y78.942 E17.97069
G1 X109.083 Y78.643 E18.00802
G1 X109.797 Y78.419 E18.04535
G1 X110.53 Y78.272 E18.08265
G1 X111.534 Y78.2 E18.13287
G1 X116.466 Y78.2 E18.37893
G1 X117.213 Y78.24 E18.41625
G1 X117.951 Y78.359 E18.45354
G1 X118.673 Y78.557 E18.49089
G1 X119.369 Y78.83 E18.52819
G1 X120.032 Y79.177 E18.56553
G1 X120.655 Y79.592 E18.60287
G1 X121.416 Y80.25 E18.65306
G1 X121.65 Y80.484 E18.66957
G1 X122.15 Y81.041 E18.70692
G1 X122.587 Y81.647 E18.74419
G1 X122.958 Y82.297 E18.78153
G1 X123.257 Y82.983 E18.81887
G1 X123.481 Y83.697 E18.8562
G1 X123.628 Y84.43 E18.8935
G1 X123.7 Y85.434 E18.94371
G1 X123.7 Y90.016 E19.17231
G1 X123.66 Y90.763 E19.20963
G1 X123.541 Y91.501 E19.24693
G1 X123.343 Y92.223 E19.28428
G1 X123.07 Y92.919 E19.32158
G1 X122.723 Y93.582 E19.35891
G1 X122.308 Y94.205 E19.39626
G1 X122.302 Y94.212 E19.39672
G1 X122.387 Y94.33 E19.40397
G1 X122.758 Y94.98 E19.44131
G1 X123.057 Y95.666 E19.47865
G1 X123.281 Y96.38 E19.51598
G1 X123.428 Y97.113 E19.55328
G1 X123.5 Y98.117 E19.6035
G1 X123.5 Y101.883 E19.79138
G1 X123.46 Y102.63 E19.8287
G1 X123.341 Y103.368 E19.866
G1 X123.143 Y104.09 E19.90335
G1 X122.87 Y104.786 E19.94065
G1 X122.523 Y105.449 E19.97798
G1 X122.108 Y106.072 E20.01533
G1 X121.45 Y106.833 E20.06552
G1 X121.333 Y106.95 E20.07377
G1 X120.776 Y107.45 E20.11112
G1 X120.17 Y107.887 E20.14839
G1 X119.52 Y108.258 E20.18573
G1 X118.834 Y108.557 E20.22306
G1 X118.12 Y108.781 E20.2604
G1 X117.387 Y108.928 E20.2977
G1 X116.383 Y109 E20.34791
G1 X109 Y109 E20.71625
G1 X109 Y114.483 E20.9898
G1 X108.96 Y115.23 E21.02712
G1 X108.841 Y115.968 E21.06442
G1 X108.643 Y116.69 E21.10177
G1 X108.37 Y117.386 E21.13907
G1 X108.023 Y118.049 E21.1764
G1 X107.608 Y118.672 E21.21375
G1 X106.95 Y119.433 E21.26394
G1 X106.833 Y119.55 E21.27219
G1 X106.276 Y120.05 E21.30954
G1 X105.67 Y120.487 E21.34681
G1 X105.02 Y120.858 E21.38415
G1 X104.334 Y121.157 E21.42148
G1 X103.62 Y121.381 E21.45882
G1 X102.887 Y121.528 E21.49611
G1 X101.883 Y121.6 E21.54633
G1 X92.117 Y121.6 E22.03356
G1 X91.37 Y121.56 E22.07088
G1 X90.632 Y121.441 E22.10818
G1 X89.91 Y121.243 E22.14553
G1 X89.214 Y120.97 E22.18283
G1 X88.551 Y120.623 E22.22016
G1 X87.928 Y120.208 E22.25751
G1 X87.167 Y119.55 E22.3077
G1 X87.05 Y119.433 E22.31595
G1 X86.55 Y118.876 E22.35329
G1 X86.113 Y118.27 E22.39057
G1 X85.742 Y117.62 E22.42791
G1 X85.443 Y116.934 E22.46524
G1 X85.219 Y116.22 E22.50258
G1 X85.072 Y115.487 E22.53987
G1 X85 Y114.483 E22.59009
G1 X85 Y109 E22.86364
G1 X83.617 Y109 E22.93264
G1 X82.87 Y108.96 E22.96996
G1 X82.132 Y108.841 E23.00725
G1 X81.41 Y108.643 E23.04461
G1 X80.714 Y108.37 E23.0819
G1 X80.051 Y108.023 E23.11924
G1 X79.428 Y107.608 E23.15658
G1 X78.667 Y106.95 E23.20677
G1 X78.55 Y106.833 E23.21503
G1 X78.05 Y106.276 E23.25237
G1 X77.613 Y105.67 E23.28965
G1 X77.242 Y105.02 E23.32699
G1 X76.943 Y104.334 E23.36432
G1 X76.719 Y103.62 E23.40165
G1 X76.572 Y102.887 E23.43895
G1 X76.5 Y101.883 E23.48917
G1 X76.5 Y98.117 E23.67706
G1 X76.54 Y97.37 E23.71438
G1 X76.659 Y96.632 E23.75167
G1 X76.857 Y95.91 E23.78902
G1 X77.13 Y95.214 E23.82632
G1 X77.477 Y94.551 E23.86366
G1 X77.892 Y93.928 E23.901
G1 X78.55 Y93.167 E23.95119
G1 X78.667 Y93.05 E23.95945
G1 X79.224 Y92.55 E23.99679
G1 X79.83 Y92.113 E24.03407
G1 X80.48 Y91.742 E24.0714
G1 X81.166 Y91.443 E24.10874
G1 X81.5 Y91.338 E24.12621
G1 X81.5 Y85.517 E24.41662
G1 X81.54 Y84.77 E24.45394
G1 X81.659 Y84.032 E24.49123
G1 X81.857 Y83.31 E24.52858
G1 X82.13 Y82.614 E24.56588
G1 X82.477 Y81.951 E24.60322
G1 X82.892 Y81.328 E24.64056
G1 X83.55 Y80.567 E24.69075
G0 F3600 X83.833 Y80.85
G1 F1800 X83.95 Y80.733 E24.69901
G1 X84.491 Y80.249 E24.73522
G1 X85.082 Y79.826 E24.77148
G1 X85.716 Y79.472 E24.80771
G1 X86.385 Y79.189 E24.84395
G1 X87.081 Y78.981 E24.88019
G1 X87.796 Y78.851 E24.91645
G1 X88.617 Y78.8 E24.95749
G1 X98.383 Y78.8 E25.44471
G1 X99.108 Y78.84 E25.48094
G1 X99.825 Y78.959 E25.5172
G1 X100.524 Y79.157 E25.55345
G1 X101.197 Y79.43 E25.58968
G1 X101.836 Y79.775 E25.62591
G1 X102.433 Y80.189 E25.66215
G1 X103.05 Y80.733 E25.70319
G1 X103.167 Y80.85 E25.71145
G1 X103.651 Y81.391 E25.74766
G1 X104.074 Y81.982 E25.78392
G1 X104.428 Y82.616 E25.82015
G1 X104.711 Y83.285 E25.85639
G1 X104.89 Y83.883 E25.88753
G1 X105.057 Y83.293 E25.91812
G1 X105.33 Y82.62 E25.95436
G1 X105.675 Y81.981 E25.99059
G1 X106.089 Y81.384 E26.02683
G1 X106.633 Y80.767 E26.06787
G1 X106.867 Y80.533 E26.08438
G1 X107.408 Y80.049 E26.12059
G1 X107.999 Y79.626 E26.15685
G1 X108.633 Y79.272 E26.19308
G1 X109.302 Y78.989 E26.22932
G1 X109.998 Y78.781 E26.26556
G1 X110.713 Y78.651 E26.30182
G1 X111.534 Y78.6 E26.34286
G1 X116.466 Y78.6 E26.58892
G1 X117.191 Y78.64 E26.62514
G1 X117.908 Y78.759 E26.6614
G1 X118.607 Y78.957 E26.69765
G1 X119.28 Y79.23 E26.73388
G1 X119.919 Y79.575 E26.77011
G1 X120.516 Y79.989 E26.80636
G1 X121.133 Y80.533 E26.84739
G1 X121.367 Y80.767 E26.8639
G1 X121.851 Y81.308 E26.90012
G1 X122.274 Y81.899 E26.93638
G1 X122.628 Y82.533 E26.97261
G1 X122.911 Y83.202 E27.00885
G1 X123.119 Y83.898 E27.04509
G1 X123.249 Y84.613 E27.08134
