;FLAVOR:Marlin
;TIME:786
;Filament used: 0.413248m
;Layer height: 0.1
;Generated with Cura_SteamEngine 4.0.0
M140 S60
M105
M190 S60
M104 S200
M105
M109 S200
M82 ;absolute extrusion mode
G21 ;metric values
G90 ;absolute positioning
M82 ;set extruder to absolute mode
M107 ;start with the fan off
G28 X0 Y0 ;move X/Y to min endstops
G28 Z0 ;move Z to min endstops
G1 Z15.0 F9000 ;move the platform down 15mm
G92 E0 ;zero the extruded length
G1 F200 E3 ;extrude 3mm of feed stock
G92 E0 ;zero the extruded length again
G1 F9000
;Put printing message on LCD screen
M117 Printing...
G92 E0
G1 F1500 E-6.5
;LAYER_COUNT:79
;LAYER:0
M107
G0 F3600 X90.792 Y88.395 Z0.3
;TYPE:SKIRT
G1 F1500 E0
G1 F1800 X91.646 Y87.541 E0.06025
G1 X92.35 Y86.916 E0.10722
G1 X93.302 Y86.17 E0.16756
G1 X94.072 Y85.638 E0.21425
G1 X95.104 Y85.013 E0.27445
G1 X95.947 Y84.571 E0.32194
G1 X97.048 Y84.076 E0.38216
G1 X97.927 Y83.743 E0.42906
G1 X99.08 Y83.384 E0.4893
G1 X99.993 Y83.159 E0.53622
G1 X101.183 Y82.941 E0.59657
G1 X102.117 Y82.827 E0.64352
G1 X103.321 Y82.754 E0.70369
G1 X103.793 Y82.74 E0.72725
G1 X119.793 Y82.74 E1.5255
G1 X120.265 Y82.754 E1.54905
G1 X121.468 Y82.827 E1.60918
G1 X122.4 Y82.94 E1.65602
G1 X123.591 Y83.158 E1.71643
G1 X124.506 Y83.384 E1.76345
G1 X125.659 Y83.743 E1.8237
G1 X126.538 Y84.076 E1.87059
G1 X127.637 Y84.57 E1.9307
G1 X128.481 Y85.013 E1.97826
G1 X129.514 Y85.639 E2.03852
G1 X130.28 Y86.168 E2.08496
G1 X131.233 Y86.914 E2.14534
G1 X131.94 Y87.541 E2.19249
G1 X132.792 Y88.393 E2.2526
G1 X133.417 Y89.097 E2.29957
G1 X134.163 Y90.049 E2.35991
G1 X134.698 Y90.824 E2.40689
G1 X135.322 Y91.856 E2.46706
G1 X135.759 Y92.688 E2.51395
G1 X136.255 Y93.789 E2.57419
G1 X136.592 Y94.68 E2.62172
G1 X136.95 Y95.833 E2.68195
G1 X137.172 Y96.734 E2.72824
G1 X137.391 Y97.924 E2.78861
G1 X137.506 Y98.864 E2.83586
G1 X137.579 Y100.067 E2.89599
G1 X137.593 Y100.539 E2.91954
G1 X137.593 Y105.04 E3.1441
G1 X137.553 Y105.829 E3.18351
G1 X137.434 Y106.609 E3.22288
G1 X137.236 Y107.374 E3.2623
G1 X136.962 Y108.114 E3.30167
G1 X136.614 Y108.823 E3.34107
G1 X136.196 Y109.494 E3.38051
G1 X135.713 Y110.118 E3.41988
G1 X135.17 Y110.691 E3.45927
G1 X134.571 Y111.206 E3.49868
G1 X133.923 Y111.657 E3.53807
G1 X133.232 Y112.041 E3.57751
G1 X132.507 Y112.353 E3.61688
G1 X131.754 Y112.59 E3.65627
G1 X130.98 Y112.749 E3.69569
G1 X130.195 Y112.83 E3.73506
G1 X129.405 Y112.83 E3.77447
G1 X128.619 Y112.751 E3.81388
G1 X127.846 Y112.593 E3.85325
G1 X127.092 Y112.357 E3.89266
G1 X126.366 Y112.047 E3.93205
G1 X125.679 Y111.667 E3.97122
G1 X123.947 Y110.592 E4.07292
G1 X122.378 Y109.754 E4.16166
G1 X120.759 Y109.021 E4.25033
G1 X119.089 Y108.393 E4.33934
G1 X117.405 Y107.882 E4.42714
G1 X116.283 Y107.621 E4.48461
G1 X107.298 Y107.621 E4.93287
G1 X106.205 Y107.876 E4.98887
G1 X104.491 Y108.395 E5.07821
G1 X102.823 Y109.023 E5.16713
G1 X101.205 Y109.755 E5.25573
G1 X99.64 Y110.591 E5.34425
G1 X97.909 Y111.666 E5.44591
G1 X97.218 Y112.048 E5.4853
G1 X96.492 Y112.358 E5.52468
G1 X95.738 Y112.594 E5.5641
G1 X94.964 Y112.752 E5.60351
G1 X94.178 Y112.83 E5.64292
G1 X93.389 Y112.83 E5.68228
G1 X92.603 Y112.749 E5.7217
G1 X91.83 Y112.589 E5.76109
G1 X91.077 Y112.352 E5.80047
G1 X90.351 Y112.04 E5.83989
G1 X89.661 Y111.656 E5.87929
G1 X89.013 Y111.204 E5.91871
G1 X88.415 Y110.689 E5.95808
G1 X87.871 Y110.116 E5.9975
G1 X87.388 Y109.492 E6.03687
G1 X86.971 Y108.821 E6.07628
G1 X86.623 Y108.112 E6.11568
G1 X86.35 Y107.371 E6.15508
G1 X86.152 Y106.607 E6.19446
G1 X86.033 Y105.826 E6.23387
G1 X85.993 Y105.04 E6.27313
G1 X85.993 Y100.54 E6.49764
G1 X86.007 Y100.068 E6.5212
G1 X86.08 Y98.864 E6.58138
G1 X86.194 Y97.93 E6.62832
G1 X86.412 Y96.74 E6.68868
G1 X86.636 Y95.829 E6.73548
G1 X86.994 Y94.678 E6.79562
G1 X87.328 Y93.797 E6.84262
G1 X87.823 Y92.696 E6.90285
G1 X88.265 Y91.854 E6.95029
G1 X88.891 Y90.82 E7.0106
G1 X89.422 Y90.051 E7.05722
G1 X90.166 Y89.101 E7.11742
G1 X90.792 Y88.395 E7.1645
G0 F3600 X91.074 Y88.677
G1 F1800 X91.928 Y87.823 E7.22475
G1 X92.597 Y87.231 E7.26932
G1 X93.549 Y86.485 E7.32966
G1 X94.28 Y85.98 E7.37398
G1 X95.312 Y85.355 E7.43418
G1 X96.111 Y84.936 E7.47919
G1 X97.212 Y84.441 E7.53941
G1 X98.046 Y84.125 E7.58391
G1 X99.199 Y83.766 E7.64416
G1 X100.066 Y83.552 E7.68871
G1 X101.256 Y83.334 E7.74907
G1 X102.141 Y83.227 E7.79354
G1 X103.345 Y83.154 E7.85372
G1 X103.793 Y83.14 E7.87608
G1 X119.793 Y83.14 E8.67432
G1 X120.241 Y83.154 E8.69669
G1 X121.444 Y83.227 E8.75681
G1 X122.328 Y83.334 E8.80124
G1 X123.519 Y83.552 E8.86164
G1 X124.387 Y83.766 E8.90625
G1 X125.54 Y84.125 E8.96649
G1 X126.374 Y84.441 E9.01099
G1 X127.473 Y84.935 E9.0711
G1 X128.274 Y85.355 E9.11622
G1 X129.307 Y85.981 E9.17649
G1 X130.033 Y86.483 E9.22052
G1 X130.986 Y87.229 E9.2809
G1 X131.658 Y87.823 E9.32565
G1 X132.51 Y88.675 E9.38576
G1 X133.102 Y89.344 E9.43033
G1 X133.848 Y90.296 E9.49067
G1 X134.355 Y91.031 E9.53522
G1 X134.979 Y92.063 E9.59538
G1 X135.394 Y92.852 E9.63986
G1 X135.89 Y93.953 E9.70011
G1 X136.21 Y94.799 E9.74523
G1 X136.568 Y95.952 E9.80546
G1 X136.779 Y96.807 E9.8494
G1 X136.998 Y97.997 E9.90977
G1 X137.106 Y98.888 E9.95454
G1 X137.179 Y100.091 E10.01467
G1 X137.193 Y100.539 E10.03703
G1 X137.193 Y105.04 E10.26159
G1 X137.153 Y105.808 E10.29996
G1 X137.034 Y106.568 E10.33834
G1 X136.836 Y107.311 E10.3767
G1 X136.562 Y108.03 E10.41509
G1 X136.215 Y108.716 E10.45344
G1 X135.799 Y109.363 E10.49181
G1 X135.318 Y109.963 E10.53018
G1 X134.777 Y110.51 E10.56856
G1 X134.182 Y110.998 E10.60695
G1 X133.54 Y111.421 E10.64531
G1 X132.857 Y111.776 E10.68371
G1 X132.142 Y112.057 E10.72204
G1 X131.4 Y112.263 E10.76046
G1 X130.642 Y112.391 E10.79881
G1 X129.874 Y112.44 E10.83721
G1 X129.106 Y112.408 E10.87556
G1 X128.345 Y112.297 E10.91392
G1 X127.599 Y112.107 E10.95233
G1 X126.878 Y111.841 E10.99067
G1 X125.89 Y111.327 E11.04623
G1 X124.149 Y110.246 E11.14847
G1 X122.559 Y109.397 E11.2384
G1 X120.911 Y108.651 E11.32865
G1 X119.225 Y108.017 E11.41852
G1 X117.49 Y107.491 E11.50897
G1 X116.332 Y107.221 E11.56829
G1 X107.255 Y107.221 E12.02114
G1 X106.088 Y107.493 E12.08092
G1 X104.37 Y108.014 E12.17049
G1 X102.658 Y108.658 E12.26174
G1 X101.037 Y109.391 E12.3505
G1 X99.437 Y110.245 E12.44098
G1 X97.698 Y111.326 E12.54314
G1 X97.024 Y111.697 E12.58152
G1 X96.316 Y111.997 E12.61989
G1 X95.58 Y112.221 E12.65827
G1 X94.825 Y112.368 E12.69664
G1 X94.059 Y112.435 E12.735
G1 X93.29 Y112.423 E12.77337
G1 X92.526 Y112.331 E12.81177
G1 X91.776 Y112.16 E12.85014
G1 X91.048 Y111.912 E12.88851
G1 X90.35 Y111.59 E12.92686
G1 X89.688 Y111.197 E12.96527
G1 X89.071 Y110.738 E13.00364
G1 X88.505 Y110.217 E13.04202
G1 X87.997 Y109.64 E13.08037
G1 X87.55 Y109.014 E13.11875
G1 X87.172 Y108.344 E13.15713
G1 X86.864 Y107.639 E13.19551
G1 X86.632 Y106.906 E13.23387
G1 X86.477 Y106.153 E13.27222
G1 X86.393 Y105.04 E13.32791
G1 X86.393 Y100.54 E13.55241
G1 X86.407 Y100.092 E13.57477
G1 X86.48 Y98.888 E13.63495
G1 X86.587 Y98.003 E13.67943
G1 X86.805 Y96.813 E13.73978
G1 X87.018 Y95.948 E13.78423
G1 X87.376 Y94.797 E13.84437
G1 X87.693 Y93.961 E13.88897
G1 X88.188 Y92.86 E13.9492
G1 X88.607 Y92.062 E13.99416
G1 X89.233 Y91.028 E14.05447
G1 X89.737 Y90.297 E14.09877
G1 X90.481 Y89.347 E14.15897
G1 X91.074 Y88.677 E14.2036
G0 F3600 X91.357 Y88.96
G1 F1800 X92.211 Y88.106 E14.26386
G1 X92.843 Y87.546 E14.30599
G1 X93.795 Y86.8 E14.36633
G1 X94.487 Y86.322 E14.40829
G1 X95.519 Y85.697 E14.46848
G1 X96.275 Y85.301 E14.51106
G1 X97.376 Y84.806 E14.57128
G1 X98.165 Y84.506 E14.6134
G1 X99.318 Y84.147 E14.67364
G1 X100.138 Y83.946 E14.71576
G1 X101.328 Y83.728 E14.77612
G1 X102.165 Y83.626 E14.81819
G1 X103.369 Y83.553 E14.87837
G1 X103.793 Y83.54 E14.89953
G1 X119.793 Y83.54 E15.69777
G1 X120.217 Y83.553 E15.71894
G1 X121.42 Y83.626 E15.77906
G1 X122.256 Y83.727 E15.82108
G1 X123.447 Y83.945 E15.88148
G1 X124.268 Y84.147 E15.92366
G1 X125.421 Y84.506 E15.98391
G1 X126.21 Y84.805 E16.02601
G1 X127.309 Y85.299 E16.08612
G1 X128.067 Y85.697 E16.12883
G1 X129.1 Y86.323 E16.18909
G1 X129.787 Y86.798 E16.23076
G1 X130.74 Y87.544 E16.29114
G1 X131.375 Y88.106 E16.33345
G1 X132.227 Y88.958 E16.39356
G1 X132.787 Y89.59 E16.43569
G1 X133.533 Y90.542 E16.49603
G1 X134.013 Y91.238 E16.53821
G1 X134.637 Y92.27 E16.59838
G1 X135.029 Y93.017 E16.64047
G1 X135.525 Y94.118 E16.70071
G1 X135.828 Y94.917 E16.74334
G1 X136.186 Y96.07 E16.80358
G1 X136.385 Y96.879 E16.84514
G1 X136.604 Y98.069 E16.90551
G1 X136.707 Y98.912 E16.94788
G1 X136.78 Y100.115 E17.00801
G1 X136.793 Y100.539 E17.02917
G1 X136.793 Y105.04 E17.25373
G1 X136.753 Y105.787 E17.29105
G1 X136.634 Y106.525 E17.32834
G1 X136.436 Y107.247 E17.36569
G1 X136.163 Y107.943 E17.40299
G1 X135.816 Y108.606 E17.44032
G1 X135.401 Y109.229 E17.47767
G1 X134.922 Y109.803 E17.51497
G1 X134.385 Y110.324 E17.5523
G1 X133.795 Y110.783 E17.58959
G1 X133.159 Y111.178 E17.62694
G1 X132.485 Y111.502 E17.66425
G1 X131.78 Y111.752 E17.70157
G1 X131.052 Y111.926 E17.73891
G1 X130.31 Y112.021 E17.77623
G1 X129.562 Y112.036 E17.81356
G1 X128.817 Y111.972 E17.85086
G1 X128.083 Y111.828 E17.88818
G1 X127.368 Y111.607 E17.92552
G1 X126.681 Y111.31 E17.96286
G1 X126.101 Y110.987 E17.99598
G1 X124.346 Y109.898 E18.09902
G1 X122.734 Y109.036 E18.19022
G1 X121.077 Y108.287 E18.28094
G1 X119.346 Y107.635 E18.37323
G1 X117.59 Y107.103 E18.46477
G1 X116.38 Y106.821 E18.52675
G1 X107.207 Y106.821 E18.9844
G1 X105.989 Y107.105 E19.04679
G1 X104.235 Y107.636 E19.13822
G1 X102.525 Y108.28 E19.22938
G1 X100.844 Y109.04 E19.32142
G1 X99.241 Y109.897 E19.41211
G1 X97.487 Y110.986 E19.51511
G1 X96.831 Y111.346 E19.55244
G1 X96.141 Y111.635 E19.58976
G1 X95.424 Y111.847 E19.62706
G1 X94.688 Y111.983 E19.66441
G1 X93.942 Y112.038 E19.70172
G1 X93.194 Y112.014 E19.73906
G1 X92.453 Y111.911 E19.77639
G1 X91.728 Y111.728 E19.81369
G1 X91.026 Y111.47 E19.851
G1 X90.356 Y111.138 E19.88831
G1 X89.724 Y110.736 E19.92568
G1 X89.14 Y110.27 E19.96295
G1 X88.608 Y109.743 E20.00031
G1 X88.136 Y109.163 E20.03762
G1 X87.728 Y108.536 E20.07494
G1 X87.39 Y107.869 E20.11225
G1 X87.125 Y107.169 E20.14959
G1 X86.936 Y106.445 E20.18692
G1 X86.825 Y105.706 E20.2242
G1 X86.793 Y105.04 E20.25747
G1 X86.793 Y100.54 E20.48197
G1 X86.806 Y100.116 E20.50314
G1 X86.879 Y98.912 E20.56331
G1 X86.981 Y98.075 E20.60538
G1 X87.199 Y96.885 E20.66574
G1 X87.4 Y96.067 E20.70776
G1 X87.758 Y94.916 E20.7679
G1 X88.058 Y94.125 E20.81011
G1 X88.553 Y93.024 E20.87033
G1 X88.949 Y92.269 E20.91286
G1 X89.575 Y91.235 E20.97317
G1 X90.052 Y90.544 E21.01506
G1 X90.796 Y89.594 E21.07526
G1 X91.357 Y88.96 E21.11749
G0 F3600 X91.64 Y89.243
G1 F1800 X92.494 Y88.389 E21.17775
G1 X93.09 Y87.861 E21.21747
G1 X94.042 Y87.115 E21.27781
G1 X94.694 Y86.665 E21.31734
G1 X95.726 Y86.04 E21.37753
G1 X96.439 Y85.665 E21.41772
G1 X97.54 Y85.17 E21.47795
G1 X98.284 Y84.888 E21.51764
G1 X99.437 Y84.529 E21.57789
G1 X100.21 Y84.339 E21.6176
G1 X101.4 Y84.121 E21.67796
G1 X102.19 Y84.025 E21.71766
G1 X103.394 Y83.952 E21.77784
G1 X103.793 Y83.94 E21.79776
G1 X119.793 Y83.94 E22.596
G1 X120.193 Y83.952 E22.61597
G1 X121.396 Y84.025 E22.67609
G1 X122.184 Y84.121 E22.7157
G1 X123.375 Y84.339 E22.7761
G1 X124.149 Y84.529 E22.81587
G1 X125.302 Y84.888 E22.87611
G1 X126.046 Y85.17 E22.91581
G1 X127.145 Y85.664 E22.97592
G1 X127.86 Y86.04 E23.01623
G1 X128.893 Y86.666 E23.07649
G1 X129.54 Y87.113 E23.11572
G1 X130.493 Y87.859 E23.1761
G1 X131.092 Y88.389 E23.216
G1 X131.944 Y89.241 E23.27612
G1 X132.472 Y89.837 E23.31584
G1 X133.218 Y90.789 E23.37618
G1 X133.671 Y91.445 E23.41595
G1 X134.295 Y92.477 E23.47612
G1 X134.665 Y93.181 E23.5158
G1 X135.161 Y94.282 E23.57604
G1 X135.446 Y95.036 E23.61626
G1 X135.804 Y96.189 E23.67649
G1 X135.992 Y96.951 E23.71565
G1 X136.211 Y98.141 E23.77601
G1 X136.308 Y98.936 E23.81597
G1 X136.381 Y100.139 E23.8761
G1 X136.393 Y100.539 E23.89606
G1 X136.393 Y105.04 E24.12062
G1 X136.353 Y105.765 E24.15685
G1 X136.234 Y106.482 E24.19311
G1 X136.036 Y107.181 E24.22935
G1 X135.763 Y107.854 E24.26559
G1 X135.418 Y108.493 E24.30181
G1 X135.004 Y109.09 E24.33806
G1 X134.528 Y109.638 E24.37427
G1 X133.994 Y110.131 E24.41053
G1 X133.409 Y110.561 E24.44675
G1 X132.78 Y110.925 E24.48301
G1 X132.115 Y111.218 E24.51927
G1 X131.422 Y111.436 E24.55551
G1 X130.71 Y111.576 E24.59171
G1 X129.986 Y111.637 E24.62796
G1 X129.26 Y111.618 E24.66419
G1 X128.54 Y111.52 E24.70045
G1 X127.836 Y111.343 E24.73666
G1 X127.155 Y111.09 E24.77291
G1 X126.312 Y110.647 E24.82042
G1 X124.549 Y109.552 E24.92396
G1 X122.915 Y108.679 E25.01638
G1 X121.216 Y107.911 E25.1094
G1 X119.481 Y107.258 E25.20189
G1 X117.703 Y106.719 E25.29458
G1 X116.423 Y106.421 E25.36015
G1 X107.163 Y106.421 E25.82213
G1 X105.875 Y106.721 E25.88811
G1 X104.113 Y107.255 E25.97997
G1 X102.372 Y107.91 E26.07277
G1 X100.675 Y108.678 E26.1657
G1 X99.026 Y109.559 E26.25897
G1 X97.276 Y110.646 E26.36175
G1 X96.639 Y110.995 E26.39799
G1 X95.967 Y111.272 E26.43425
G1 X95.269 Y111.473 E26.47049
G1 X94.553 Y111.596 E26.50674
G1 X93.828 Y111.64 E26.54297
G1 X93.103 Y111.604 E26.57919
G1 X92.386 Y111.488 E26.61543
G1 X91.685 Y111.294 E26.65171
G1 X91.011 Y111.025 E26.68792
G1 X90.37 Y110.683 E26.72416
G1 X89.771 Y110.273 E26.76038
G1 X89.22 Y109.799 E26.79664
G1 X88.725 Y109.268 E26.83286
G1 X88.291 Y108.685 E26.86912
G1 X87.924 Y108.058 E26.90536
G1 X87.628 Y107.395 E26.94159
G1 X87.406 Y106.703 E26.97785
G1 X87.262 Y105.992 E27.01404
G1 X87.193 Y105.04 E27.06166
G1 X87.193 Y100.54 E27.28616
G1 X87.205 Y100.141 E27.30608
G1 X87.278 Y98.937 E27.36626
G1 X87.374 Y98.147 E27.40596
G1 X87.592 Y96.957 E27.46632
G1 X87.782 Y96.186 E27.50593
G1 X88.14 Y95.035 E27.56607
G1 X88.422 Y94.289 E27.60586
G1 X88.917 Y93.188 E27.66608
G1 X89.291 Y92.476 E27.70621
G1 X89.917 Y91.442 E27.76651
G1 X90.367 Y90.791 E27.80599
G1 X91.111 Y89.841 E27.8662
G1 X91.64 Y89.243 E27.90603
G0 F3600 X91.923 Y89.526
G1 F1800 X92.777 Y88.672 E27.96628
G1 X93.337 Y88.176 E28.0036
G1 X94.289 Y87.43 E28.06394
G1 X94.901 Y87.007 E28.10106
G1 X95.933 Y86.382 E28.16125
G1 X96.603 Y86.03 E28.19901
G1 X97.704 Y85.535 E28.25924
G1 X98.403 Y85.27 E28.29653
G1 X99.556 Y84.911 E28.35678
G1 X100.282 Y84.732 E28.39409
G1 X101.472 Y84.514 E28.45444
G1 X102.214 Y84.424 E28.49173
G1 X103.418 Y84.351 E28.55191
G1 X103.793 Y84.34 E28.57063
G1 X119.793 Y84.34 E29.36887
G1 X120.169 Y84.351 E29.38764
G1 X121.372 Y84.424 E29.44777
G1 X122.112 Y84.514 E29.48496
G1 X123.303 Y84.732 E29.54536
G1 X124.03 Y84.911 E29.58272
G1 X125.183 Y85.27 E29.64296
G1 X125.882 Y85.535 E29.68026
G1 X126.981 Y86.029 E29.74037
G1 X127.652 Y86.382 E29.7782
G1 X128.685 Y87.008 E29.83846
G1 X129.294 Y87.428 E29.87537
G1 X130.247 Y88.174 E29.93575
G1 X130.809 Y88.672 E29.97321
G1 X131.661 Y89.524 E30.03332
G1 X132.157 Y90.084 E30.07065
G1 X132.903 Y91.036 E30.13099
G1 X133.329 Y91.652 E30.16835
G1 X133.953 Y92.684 E30.22852
G1 X134.3 Y93.345 E30.26576
G1 X134.796 Y94.446 E30.32601
G1 X135.064 Y95.155 E30.36382
G1 X135.422 Y96.308 E30.42406
G1 X135.599 Y97.024 E30.46085
G1 X135.818 Y98.214 E30.52122
G1 X135.909 Y98.96 E30.55871
G1 X135.982 Y100.163 E30.61884
G1 X135.993 Y100.539 E30.63761
G1 X135.993 Y105.04 E30.86216
G1 X135.953 Y105.743 E30.89729
G1 X135.834 Y106.437 E30.93242
G1 X135.636 Y107.112 E30.96752
G1 X135.364 Y107.761 E31.00263
G1 X135.019 Y108.375 E31.03776
G1 X134.608 Y108.946 E31.07286
G1 X134.134 Y109.467 E31.108
G1 X133.604 Y109.931 E31.14315
G1 X133.025 Y110.331 E31.17825
G1 X132.404 Y110.663 E31.21339
G1 X131.75 Y110.923 E31.2485
G1 X131.07 Y111.107 E31.28364
G1 X130.374 Y111.213 E31.31877
G1 X129.671 Y111.239 E31.35386
G1 X128.969 Y111.185 E31.38899
G1 X128.278 Y111.052 E31.4241
G1 X127.606 Y110.841 E31.45924
G1 X126.962 Y110.556 E31.49437
G1 X126.523 Y110.308 E31.51953
G1 X124.745 Y109.204 E31.62394
G1 X123.09 Y108.32 E31.71755
G1 X121.368 Y107.541 E31.81184
G1 X119.603 Y106.877 E31.90592
G1 X117.806 Y106.332 E31.99961
G1 X116.47 Y106.021 E32.06804
G1 X107.115 Y106.021 E32.53477
G1 X105.79 Y106.33 E32.60265
G1 X103.978 Y106.879 E32.69711
G1 X102.207 Y107.546 E32.79152
G1 X100.5 Y108.317 E32.88497
G1 X98.841 Y109.204 E32.97882
G1 X97.065 Y110.307 E33.08312
