;FLAVOR:Marlin
;TIME:13585
;Filament used: 11.5807m
;Layer height: 0.15
;Generated with Cura_SteamEngine 4.0.0
M140 S60
M105
M190 S60
M104 S200
M105
M109 S200
M82 ;absolute extrusion mode
G21 ;metric values
G90 ;absolute positioning
M82 ;set extruder to absolute mode
M107 ;start with the fan off
G28 X0 Y0 ;move X/Y to min endstops
G28 Z0 ;move Z to min endstops
G1 Z15.0 F9000 ;move the platform down 15mm
G92 E0 ;zero the extruded length
G1 F200 E3 ;extrude 3mm of feed stock
G92 E0 ;zero the extruded length again
G1 F9000
;Put printing message on LCD screen
M117 Printing...
G92 E0
G1 F1500 E-6.5
;LAYER_COUNT:53
;LAYER:0
M107
G0 F3600 X59.41 Y41.849 Z0.3
;TYPE:SKIRT
G1 F1500 E0
G1 F1800 X59.731 Y41.467 E0.02489
G1 X60.83 Y40.238 E0.10715
G1 X61.385 Y39.676 E0.14655
G1 X61.767 Y39.349 E0.17164
G1 X63.059 Y38.314 E0.25423
G1 X63.7 Y37.853 E0.29362
G1 X64.13 Y37.594 E0.31867
G1 X65.568 Y36.79 E0.40086
G1 X66.275 Y36.44 E0.44022
G1 X66.735 Y36.258 E0.4649
G1 X68.29 Y35.699 E0.54734
G1 X69.046 Y35.47 E0.58675
G1 X69.534 Y35.365 E0.61165
G1 X71.162 Y35.069 E0.6942
G1 X71.945 Y34.967 E0.7336
G1 X72.448 Y34.944 E0.75872
G1 X74.095 Y34.921 E0.8409
G1 X74.884 Y34.95 E0.88029
G1 X75.372 Y35.008 E0.9048
G1 X77.009 Y35.256 E0.98741
G1 X77.783 Y35.414 E1.02682
G1 X78.273 Y35.557 E1.05228
G1 X79.839 Y36.071 E1.13451
G1 X80.576 Y36.355 E1.17392
G1 X81.017 Y36.568 E1.19835
G1 X82.484 Y37.334 E1.28092
G1 X83.165 Y37.734 E1.32032
G1 X83.58 Y38.027 E1.34566
G1 X84.894 Y39.021 E1.42786
G1 X85.499 Y39.529 E1.46728
G1 X85.85 Y39.877 E1.49194
G1 X86.988 Y41.078 E1.57448
G1 X87.501 Y41.678 E1.61386
G1 X87.797 Y42.088 E1.63909
G1 X88.719 Y43.458 E1.72148
G1 X89.054 Y44.002 E1.75335
G1 X91.771 Y48.855 E2.03083
G1 X92.328 Y49.631 E2.07849
G1 X92.838 Y50.131 E2.11412
G1 X93.427 Y50.537 E2.14981
G1 X94.079 Y50.838 E2.18564
G1 X94.76 Y51.019 E2.22079
G1 X95.277 Y51.063 E2.24668
G1 X105.861 Y45.138 E2.85183
G1 X109.825 Y42.142 E3.09972
G1 X113.668 Y38.699 E3.35714
G1 X117.23 Y34.93 E3.61587
G1 X120.321 Y31.058 E3.86305
G1 X124.815 Y23.51 E4.30131
G1 X125.169 Y22.968 E4.33361
G1 X126.13 Y21.622 E4.41612
G1 X126.621 Y21.003 E4.45553
G1 X126.958 Y20.643 E4.48014
G1 X128.123 Y19.476 E4.5624
G1 X128.708 Y18.946 E4.60179
G1 X129.109 Y18.64 E4.62695
G1 X130.453 Y17.68 E4.70935
G1 X131.118 Y17.254 E4.74875
G1 X131.555 Y17.022 E4.77344
G1 X133.041 Y16.294 E4.85599
G1 X133.767 Y15.983 E4.8954
G1 X134.245 Y15.824 E4.92053
G1 X135.825 Y15.353 E5.00278
G1 X136.592 Y15.166 E5.04217
G1 X137.086 Y15.088 E5.06712
G1 X138.726 Y14.883 E5.14958
G1 X139.513 Y14.825 E5.18895
G1 X140.01 Y14.829 E5.21374
G1 X141.658 Y14.896 E5.29603
G1 X142.444 Y14.968 E5.33541
G1 X142.943 Y15.056 E5.36069
G1 X144.563 Y15.396 E5.44327
G1 X145.327 Y15.597 E5.48268
G1 X145.79 Y15.761 E5.50719
G1 X147.329 Y16.36 E5.58958
G1 X148.05 Y16.683 E5.629
G1 X148.49 Y16.927 E5.6541
G1 X149.906 Y17.77 E5.73631
G1 X150.563 Y18.208 E5.77571
G1 X150.954 Y18.518 E5.8006
G1 X152.215 Y19.585 E5.88301
G1 X152.792 Y20.125 E5.92244
G1 X153.126 Y20.495 E5.94731
G1 X154.196 Y21.757 E6.02985
G1 X154.676 Y22.384 E6.06925
G1 X154.946 Y22.805 E6.0942
G1 X155.79 Y24.22 E6.1764
G1 X156.16 Y24.918 E6.21581
G1 X156.356 Y25.377 E6.24071
G1 X156.957 Y26.915 E6.3231
G1 X157.207 Y27.664 E6.36249
G1 X157.325 Y28.148 E6.38734
G1 X157.666 Y29.769 E6.46999
G1 X157.789 Y30.549 E6.50938
G1 X157.826 Y31.052 E6.53454
G1 X157.894 Y32.691 E6.61638
G1 X157.887 Y33.48 E6.65575
G1 X157.843 Y33.962 E6.6799
G1 X157.641 Y35.611 E6.76278
G1 X157.506 Y36.389 E6.80217
G1 X157.375 Y36.887 E6.82787
G1 X156.905 Y38.467 E6.91011
G1 X156.642 Y39.211 E6.94947
G1 X156.438 Y39.665 E6.97431
G1 X155.712 Y41.152 E7.05686
G1 X155.405 Y41.72 E7.08907
G1 X150.091 Y50.646 E7.60734
G1 X149.72 Y51.848 E7.6701
G1 X167.042 Y82.796 E9.4395
G1 X168.258 Y83.107 E9.50212
G1 X178.649 Y83.246 E10.02057
G1 X179.29 Y83.281 E10.0526
G1 X180.937 Y83.439 E10.13515
G1 X181.718 Y83.554 E10.17453
G1 X182.206 Y83.667 E10.19952
G1 X183.8 Y84.093 E10.28184
G1 X184.551 Y84.336 E10.32122
G1 X185.015 Y84.529 E10.34629
G1 X186.517 Y85.212 E10.42861
G1 X187.218 Y85.574 E10.46797
G1 X187.641 Y85.839 E10.49287
G1 X189.012 Y86.761 E10.5753
G1 X189.644 Y87.235 E10.61471
G1 X190.022 Y87.57 E10.63991
G1 X191.224 Y88.708 E10.72249
G1 X191.769 Y89.279 E10.76187
G1 X192.076 Y89.659 E10.78625
G1 X193.071 Y90.971 E10.8684
G1 X193.516 Y91.623 E10.90778
G1 X193.767 Y92.068 E10.93327
G1 X194.534 Y93.534 E11.01581
G1 X194.864 Y94.251 E11.05519
G1 X195.031 Y94.709 E11.07951
G1 X195.547 Y96.275 E11.16177
G1 X195.756 Y97.037 E11.20119
G1 X195.849 Y97.536 E11.22652
G1 X196.099 Y99.17 E11.30899
G1 X196.179 Y99.956 E11.3484
G1 X196.188 Y100.454 E11.37325
G1 X196.166 Y102.104 E11.45558
G1 X196.116 Y102.892 E11.49497
G1 X196.043 Y103.384 E11.51978
G1 X195.75 Y105.009 E11.60216
G1 X195.571 Y105.778 E11.64155
G1 X195.417 Y106.255 E11.66656
G1 X194.859 Y107.813 E11.74913
G1 X194.556 Y108.542 E11.78851
G1 X194.326 Y108.985 E11.81341
G1 X193.522 Y110.425 E11.8957
G1 X193.103 Y111.095 E11.93512
G1 X192.804 Y111.494 E11.96
G1 X191.771 Y112.786 E12.04252
G1 X191.247 Y113.377 E12.08193
G1 X190.883 Y113.725 E12.10705
G1 X189.655 Y114.825 E12.1893
G1 X189.041 Y115.321 E12.22868
G1 X188.63 Y115.601 E12.25349
G1 X187.232 Y116.488 E12.33609
G1 X186.544 Y116.877 E12.37553
G1 X186.09 Y117.087 E12.40048
G1 X184.571 Y117.729 E12.48276
G1 X183.829 Y117.999 E12.52215
G1 X183.35 Y118.13 E12.54692
G1 X181.746 Y118.514 E12.62921
G1 X180.97 Y118.658 E12.66858
G1 X180.472 Y118.709 E12.69356
G1 X178.822 Y118.824 E12.77608
G1 X178.176 Y118.842 E12.80832
G1 X169.391 Y118.725 E13.24664
G1 X164.472 Y119.337 E13.49395
G1 X159.406 Y120.401 E13.7522
G1 X154.456 Y121.878 E14.00992
G1 X149.83 Y123.689 E14.25777
G1 X139.243 Y129.615 E14.86307
G1 X139.013 Y130.075 E14.88873
G1 X138.81 Y130.752 E14.92399
G1 X138.726 Y131.461 E14.95961
G1 X138.765 Y132.184 E14.99573
G1 X138.924 Y132.877 E15.0312
G1 X139.293 Y133.757 E15.07881
G1 X142.01 Y138.608 E15.3562
G1 X142.3 Y139.181 E15.38824
G1 X142.985 Y140.682 E15.47056
G1 X143.276 Y141.416 E15.50995
G1 X143.423 Y141.9 E15.53519
G1 X143.851 Y143.496 E15.61762
G1 X144.016 Y144.268 E15.65701
G1 X144.08 Y144.76 E15.68176
G1 X144.24 Y146.404 E15.76417
G1 X144.277 Y147.193 E15.80358
G1 X144.259 Y147.693 E15.82854
G1 X144.146 Y149.344 E15.9111
G1 X144.052 Y150.128 E15.95049
G1 X143.952 Y150.619 E15.97549
G1 X143.57 Y152.222 E16.05771
G1 X143.348 Y152.98 E16.09711
G1 X143.169 Y153.445 E16.12197
G1 X142.527 Y154.967 E16.20438
G1 X142.183 Y155.679 E16.24383
G1 X141.93 Y156.108 E16.26868
G1 X141.045 Y157.506 E16.35123
G1 X140.59 Y158.151 E16.39061
G1 X140.269 Y158.533 E16.4155
G1 X139.17 Y159.762 E16.49775
G1 X138.615 Y160.324 E16.53716
G1 X138.233 Y160.651 E16.56225
G1 X136.941 Y161.686 E16.64484
G1 X136.3 Y162.147 E16.68423
G1 X135.87 Y162.406 E16.70927
G1 X134.432 Y163.21 E16.79147
G1 X133.725 Y163.56 E16.83082
G1 X133.265 Y163.742 E16.8555
G1 X131.71 Y164.301 E16.93794
G1 X130.954 Y164.53 E16.97735
G1 X130.466 Y164.635 E17.00226
G1 X128.838 Y164.931 E17.08481
G1 X128.055 Y165.033 E17.1242
G1 X127.552 Y165.056 E17.14933
G1 X125.905 Y165.079 E17.2315
G1 X125.116 Y165.05 E17.27089
G1 X124.628 Y164.992 E17.29541
G1 X122.991 Y164.744 E17.37801
G1 X122.217 Y164.586 E17.41742
G1 X121.727 Y164.443 E17.44289
G1 X120.161 Y163.929 E17.52512
G1 X119.424 Y163.645 E17.56452
G1 X118.983 Y163.432 E17.58896
G1 X117.516 Y162.666 E17.67152
G1 X116.835 Y162.266 E17.71092
G1 X116.42 Y161.972 E17.7363
G1 X115.118 Y160.987 E17.81775
G1 X114.513 Y160.48 E17.85713
G1 X114.172 Y160.143 E17.88105
G1 X113.024 Y158.936 E17.96415
G1 X112.51 Y158.337 E18.00353
G1 X112.205 Y157.915 E18.02951
G1 X111.281 Y156.542 E18.11208
G1 X110.946 Y155.998 E18.14395
G1 X108.227 Y151.142 E18.42161
G1 X107.673 Y150.371 E18.46897
G1 X107.162 Y149.869 E18.50471
G1 X106.573 Y149.463 E18.5404
G1 X105.922 Y149.162 E18.57618
G1 X105.248 Y148.984 E18.61096
G1 X104.723 Y148.937 E18.63726
G1 X94.138 Y154.862 E19.24245
G1 X90.175 Y157.858 E19.49031
G1 X86.332 Y161.301 E19.74773
G1 X82.77 Y165.07 E20.00645
G1 X79.679 Y168.942 E20.25363
G1 X75.185 Y176.49 E20.69189
G1 X74.831 Y177.032 E20.72419
G1 X73.87 Y178.378 E20.8067
G1 X73.379 Y178.997 E20.84612
G1 X73.042 Y179.357 E20.87072
G1 X71.877 Y180.524 E20.95299
G1 X71.292 Y181.054 E20.99237
G1 X70.891 Y181.36 E21.01754
G1 X69.547 Y182.32 E21.09994
G1 X68.882 Y182.746 E21.13934
G1 X68.446 Y182.977 E21.16396
G1 X66.961 Y183.705 E21.24647
G1 X66.236 Y184.016 E21.28582
G1 X65.755 Y184.176 E21.31111
G1 X64.174 Y184.647 E21.39342
G1 X63.407 Y184.834 E21.4328
G1 X62.914 Y184.912 E21.4577
G1 X61.274 Y185.117 E21.54016
G1 X60.487 Y185.175 E21.57953
G1 X59.964 Y185.169 E21.60563
G1 X58.284 Y185.095 E21.68952
G1 X57.498 Y185.021 E21.72891
G1 X57.026 Y184.937 E21.75283
G1 X55.438 Y184.604 E21.83378
G1 X54.674 Y184.403 E21.87319
G1 X54.21 Y184.239 E21.89774
G1 X52.671 Y183.64 E21.98013
G1 X51.95 Y183.317 E22.01955
G1 X51.509 Y183.072 E22.04472
G1 X50.092 Y182.228 E22.127
G1 X49.434 Y181.79 E22.16644
G1 X49.044 Y181.481 E22.19126
G1 X47.782 Y180.413 E22.27374
G1 X47.206 Y179.873 E22.31313
G1 X46.871 Y179.502 E22.33807
G1 X45.803 Y178.242 E22.42048
G1 X45.323 Y177.615 E22.45987
G1 X45.054 Y177.195 E22.48476
G1 X44.21 Y175.78 E22.56696
G1 X43.84 Y175.082 E22.60637
G1 X43.644 Y174.622 E22.63131
G1 X43.042 Y173.081 E22.71385
G1 X42.792 Y172.332 E22.75325
G1 X42.674 Y171.847 E22.77815
G1 X42.334 Y170.229 E22.86064
G1 X42.211 Y169.449 E22.90003
G1 X42.174 Y168.948 E22.92509
G1 X42.106 Y167.309 E23.00693
G1 X42.113 Y166.52 E23.0463
G1 X42.159 Y166.019 E23.0714
G1 X42.368 Y164.346 E23.15551
G1 X42.506 Y163.568 E23.19494
G1 X42.632 Y163.088 E23.21969
G1 X43.095 Y161.532 E23.30069
G1 X43.358 Y160.788 E23.34006
G1 X43.562 Y160.335 E23.36484
G1 X44.288 Y158.848 E23.4474
G1 X44.595 Y158.28 E23.47961
G1 X49.86 Y149.436 E23.99311
G1 X50.688 Y146.505 E24.14506
G1 X51.199 Y142.984 E24.32256
G1 X51.247 Y139.426 E24.50009
G1 X50.829 Y135.89 E24.67773
G1 X50.08 Y132.942 E24.82948
G1 X45.82 Y125.329 E25.26471
G1 X43.695 Y123.147 E25.41667
G1 X40.902 Y120.943 E25.59417
G1 X37.844 Y119.123 E25.77171
G1 X34.57 Y117.715 E25.94951
G1 X31.647 Y116.891 E26.10103
G1 X21.351 Y116.754 E26.61474
G1 X20.71 Y116.719 E26.64677
G1 X19.063 Y116.561 E26.72932
G1 X18.282 Y116.446 E26.7687
G1 X17.796 Y116.333 E26.79359
G1 X16.23 Y115.915 E26.87446
G1 X15.479 Y115.673 E26.91382
G1 X15.027 Y115.485 E26.93824
G1 X13.491 Y114.79 E27.02236
G1 X12.788 Y114.429 E27.06178
G1 X12.353 Y114.156 E27.0874
G1 X10.988 Y113.238 E27.16947
G1 X10.356 Y112.765 E27.20886
G1 X9.978 Y112.43 E27.23405
G1 X8.776 Y111.292 E27.31664
G1 X8.231 Y110.721 E27.35602
G1 X7.923 Y110.34 E27.38046
G1 X6.926 Y109.025 E27.46279
G1 X6.482 Y108.373 E27.50214
G1 X6.23 Y107.927 E27.5277
G1 X5.465 Y106.464 E27.61007
G1 X5.135 Y105.747 E27.64944
G1 X4.969 Y105.291 E27.67365
G1 X4.453 Y103.725 E27.75591
G1 X4.244 Y102.963 E27.79533
G1 X4.151 Y102.464 E27.82066
G1 X3.901 Y100.83 E27.90313
G1 X3.821 Y100.044 E27.94254
G1 X3.812 Y99.546 E27.96739
G1 X3.834 Y97.896 E28.04972
G1 X3.884 Y97.108 E28.08911
G1 X3.957 Y96.616 E28.11393
G1 X4.25 Y94.991 E28.19631
G1 X4.429 Y94.222 E28.2357
G1 X4.583 Y93.745 E28.2607
G1 X5.141 Y92.187 E28.34327
G1 X5.444 Y91.458 E28.38265
G1 X5.674 Y91.015 E28.40756
G1 X6.478 Y89.575 E28.48984
G1 X6.897 Y88.905 E28.52926
G1 X7.196 Y88.506 E28.55414
G1 X8.23 Y87.213 E28.63674
G1 X8.754 Y86.622 E28.67614
G1 X9.118 Y86.274 E28.70127
G1 X10.345 Y85.175 E28.78345
G1 X10.959 Y84.678 E28.82286
G1 X11.37 Y84.399 E28.84764
G1 X12.768 Y83.512 E28.93024
G1 X13.456 Y83.123 E28.96967
G1 X13.91 Y82.913 E28.99463
G1 X15.429 Y82.271 E29.0769
G1 X16.171 Y82.001 E29.11629
G1 X16.65 Y81.87 E29.14107
G1 X18.254 Y81.486 E29.22335
G1 X19.03 Y81.342 E29.26273
G1 X19.528 Y81.291 E29.2877
G1 X21.178 Y81.176 E29.37022
G1 X21.824 Y81.158 E29.40246
G1 X30.609 Y81.275 E29.84079
G1 X35.519 Y80.665 E30.08763
G1 X40.635 Y79.587 E30.34848
G1 X45.547 Y78.121 E30.60422
G1 X50.17 Y76.311 E30.85191
G1 X60.76 Y70.383 E31.45739
G1 X60.985 Y69.932 E31.48253
G1 X61.19 Y69.249 E31.51811
G1 X61.274 Y68.539 E31.55378
G1 X61.235 Y67.816 E31.5899
G1 X61.076 Y67.123 E31.62538
G1 X60.706 Y66.242 E31.67305
G1 X57.989 Y61.39 E31.95048
G1 X57.698 Y60.816 E31.98259
G1 X57.013 Y59.314 E32.06495
G1 X56.722 Y58.579 E32.10439
G1 X56.576 Y58.096 E32.12956
G1 X56.149 Y56.503 E32.21184
G1 X55.983 Y55.731 E32.25124
G1 X55.92 Y55.24 E32.27594
G1 X55.76 Y53.596 E32.35834
G1 X55.723 Y52.807 E32.39775
G1 X55.741 Y52.307 E32.42271
G1 X55.854 Y50.656 E32.50527
G1 X55.948 Y49.872 E32.54467
G1 X56.048 Y49.381 E32.56967
G1 X56.43 Y47.778 E32.65188
G1 X56.652 Y47.02 E32.69129
G1 X56.831 Y46.555 E32.71614
G1 X57.473 Y45.033 E32.79856
G1 X57.817 Y44.321 E32.83801
G1 X58.07 Y43.892 E32.86285
G1 X58.955 Y42.494 E32.9454
G1 X59.41 Y41.849 E32.98478
G0 F3600 X59.737 Y42.08
G1 F1800 X60.029 Y41.733 E33.00741
G1 X61.128 Y40.504 E33.08966
G1 X61.67 Y39.958 E33.12804
G1 X62.017 Y39.662 E33.1508
G1 X63.309 Y38.627 E33.23339
G1 X63.934 Y38.178 E33.27178
G1 X64.325 Y37.943 E33.29454
G1 X65.763 Y37.139 E33.37674
G1 X66.453 Y36.799 E33.41511
G1 X66.871 Y36.634 E33.43753
G1 X68.426 Y36.075 E33.51997
G1 X69.162 Y35.853 E33.55833
G1 X69.605 Y35.758 E33.58093
G1 X71.233 Y35.462 E33.66348
G1 X71.996 Y35.364 E33.70186
G1 X72.454 Y35.344 E33.72473
G1 X74.101 Y35.321 E33.80691
G1 X74.869 Y35.35 E33.84525
G1 X75.312 Y35.403 E33.86751
G1 X76.949 Y35.651 E33.95011
G1 X77.703 Y35.806 E33.98852
G1 X78.149 Y35.937 E34.01171
G1 X79.715 Y36.451 E34.09394
G1 X80.432 Y36.729 E34.1323
G1 X80.832 Y36.922 E34.15446
G1 X82.299 Y37.688 E34.23703
G1 X82.962 Y38.079 E34.27543
G1 X83.338 Y38.346 E34.29843
G1 X84.652 Y39.34 E34.38063
G1 X85.241 Y39.836 E34.41905
G1 X85.56 Y40.152 E34.44145
G1 X86.698 Y41.353 E34.524
G1 X87.197 Y41.938 E34.56236
G1 X87.465 Y42.311 E34.58527
G1 X88.387 Y43.681 E34.66766
G1 X88.705 Y44.198 E34.69794
G1 X91.431 Y49.067 E34.97634
G1 X92.022 Y49.89 E35.02689
G1 X92.583 Y50.441 E35.06612
G1 X93.229 Y50.886 E35.10525
G1 X93.946 Y51.217 E35.14465
G1 X94.691 Y51.415 E35.18311
G1 X95.364 Y51.472 E35.21681
G1 X106.084 Y45.471 E35.82973
G1 X110.077 Y42.453 E36.07944
G1 X113.949 Y38.983 E36.33883
G1 X117.528 Y35.197 E36.59876
G1 X120.651 Y31.285 E36.84849
G1 X125.159 Y23.714 E37.2881
G1 X125.494 Y23.2 E37.31871
G1 X126.455 Y21.854 E37.40122
G1 X126.934 Y21.252 E37.4396
G1 X127.241 Y20.926 E37.46194
G1 X128.406 Y19.759 E37.54421
G1 X128.977 Y19.244 E37.58257
G1 X129.342 Y18.965 E37.60549
G1 X130.686 Y18.005 E37.68789
G1 X131.334 Y17.591 E37.72626
G1 X131.731 Y17.382 E37.74864
G1 X133.217 Y16.654 E37.8312
G1 X133.925 Y16.352 E37.8696
G1 X134.359 Y16.207 E37.89243
G1 X135.939 Y15.736 E37.97468
G1 X136.687 Y15.555 E38.01307
G1 X137.135 Y15.485 E38.0357
G1 X138.775 Y15.28 E38.11815
G1 X139.542 Y15.225 E38.15652
G1 X139.994 Y15.229 E38.17907
G1 X141.642 Y15.296 E38.26136
G1 X142.407 Y15.367 E38.29969
G1 X142.861 Y15.448 E38.32269
G1 X144.481 Y15.788 E38.40528
G1 X145.224 Y15.985 E38.44363
G1 X145.645 Y16.134 E38.46591
G1 X147.184 Y16.733 E38.5483
G1 X147.885 Y17.049 E38.58666
G1 X148.285 Y17.271 E38.60948
G1 X149.701 Y18.114 E38.6917
G1 X150.341 Y18.541 E38.73008
G1 X150.696 Y18.823 E38.7527
G1 X151.957 Y19.89 E38.83511
G1 X152.518 Y20.417 E38.87351
G1 X152.821 Y20.753 E38.89609
G1 X153.891 Y22.015 E38.97863
G1 X154.358 Y22.627 E39.01704
G1 X154.602 Y23.01 E39.0397
G1 X155.446 Y24.425 E39.12189
G1 X155.805 Y25.105 E39.16026
G1 X155.983 Y25.523 E39.18292
G1 X156.584 Y27.061 E39.26531
G1 X156.827 Y27.791 E39.30369
G1 X156.934 Y28.231 E39.32628
G1 X157.275 Y29.852 E39.40892
G1 X157.394 Y30.612 E39.4473
G1 X157.427 Y31.068 E39.47011
G1 X157.495 Y32.707 E39.55195
G1 X157.487 Y33.476 E39.59032
G1 X157.446 Y33.914 E39.61227
G1 X157.244 Y35.563 E39.69515
G1 X157.111 Y36.32 E39.7335
G1 X156.992 Y36.773 E39.75686
G1 X156.522 Y38.353 E39.8391
G1 X156.265 Y39.078 E39.87748
G1 X156.079 Y39.49 E39.90003
G1 X155.353 Y40.977 E39.98259
G1 X155.062 Y41.515 E40.0131
G1 X149.723 Y50.483 E40.53381
G1 X149.288 Y51.895 E40.60752
G1 X166.776 Y83.14 E42.39389
